Klick/Luts/Coastal Film.cube
#Created by: Adobe Photoshop Export Color Lookup Plugin
#Copyright: (C) Copyright 2022 Tim Martin and Presetpro.com
TITLE "Presetpro - Coastal Film.jpg"
#LUT size
LUT_3D_SIZE 32
#data domain
DOMAIN_MIN 0.0 0.0 0.0
DOMAIN_MAX 1.0 1.0 1.0
#LUT data points
0.031372 0.027466 0.047058
0.031372 0.027466 0.047058
0.035797 0.031616 0.051239
0.043152 0.035309 0.047058
0.039734 0.031891 0.051483
0.056152 0.035919 0.051605
0.076019 0.039215 0.059570
0.091949 0.040497 0.057953
0.119659 0.036316 0.061737
0.154694 0.031372 0.061615
0.193298 0.024933 0.058838
0.246155 0.010376 0.068054
0.298401 0.002411 0.058838
0.359863 0.000000 0.064392
0.424133 0.002167 0.065277
0.489655 0.003937 0.060730
0.559418 0.002014 0.060852
0.628601 0.003937 0.060974
0.682617 0.003937 0.062744
0.744751 0.005432 0.061218
0.802032 0.002533 0.065521
0.848602 0.003937 0.056152
0.895142 0.002777 0.062744
0.937134 0.000000 0.064636
0.978638 0.000000 0.069702
0.996063 0.003937 0.078430
0.996063 0.003937 0.086273
0.998993 0.006836 0.097015
0.992920 0.003540 0.124359
0.999481 0.093994 0.137268
1.000000 0.179260 0.171906
1.000000 0.247070 0.196075
0.031372 0.035309 0.050995
0.031372 0.035309 0.050720
0.039215 0.039215 0.047058
0.035797 0.035797 0.043396
0.051361 0.032501 0.046692
0.059082 0.043152 0.047180
0.072998 0.036041 0.048309
0.099060 0.038574 0.058441
0.125488 0.036560 0.049194
0.158508 0.038330 0.058960
0.200867 0.029114 0.061371
0.250336 0.014282 0.063873
0.299896 0.000000 0.063873
0.361389 0.000122 0.064148
0.433228 0.000122 0.060577
0.493713 0.000122 0.051117
0.565247 0.000000 0.062500
0.628998 0.000000 0.059204
0.688202 0.000000 0.054901
0.750183 0.001648 0.060974
0.802032 0.003937 0.054779
0.849854 0.000122 0.060974
0.903870 0.001251 0.055786
0.944733 0.000122 0.054901
0.983429 0.000885 0.057800
0.993042 0.003052 0.068817
0.999359 0.000641 0.092590
0.989502 0.006592 0.093872
0.989380 0.010498 0.113464
0.999756 0.114349 0.140289
0.996216 0.187347 0.164062
0.996216 0.258698 0.192169
0.023529 0.043152 0.054901
0.027313 0.043152 0.054657
0.031372 0.047058 0.050995
0.035431 0.043762 0.039856
0.048065 0.040466 0.043640
0.063507 0.047302 0.043640
0.076538 0.044159 0.044647
0.097015 0.047699 0.047943
0.128265 0.047302 0.054657
0.169769 0.045288 0.054901
0.203156 0.034271 0.057312
0.256531 0.024933 0.054138
0.312561 0.002655 0.053497
0.377838 0.000244 0.059967
0.432739 0.000244 0.062744
0.503571 0.000000 0.059204
0.563599 0.000000 0.056305
0.633179 0.000000 0.051239
0.694885 0.002014 0.056671
0.751312 0.000000 0.050720
0.808258 0.000000 0.050720
0.853668 0.002655 0.046448
0.904114 0.000244 0.059448
0.942963 0.002899 0.047577
0.978241 0.003052 0.056549
0.995575 0.000763 0.062225
0.999115 0.003052 0.072357
0.999237 0.000244 0.092102
0.992798 0.022278 0.099060
1.000000 0.130554 0.132843
0.996063 0.202911 0.156494
1.000000 0.259338 0.187469
0.016052 0.048187 0.055664
0.019348 0.051483 0.058685
0.030609 0.055267 0.054901
0.031006 0.055664 0.055267
0.047180 0.055908 0.050720
0.060333 0.055664 0.040222
0.077545 0.055664 0.044281
0.101562 0.055145 0.046814
0.134460 0.053131 0.047821
0.174316 0.050598 0.044281
0.209595 0.050476 0.053894
0.265381 0.033661 0.052765
0.318390 0.016968 0.053009
0.379486 0.000000 0.051849
0.447662 0.000000 0.057068
0.515961 0.000000 0.050598
0.569672 0.003540 0.052124
0.637604 0.002136 0.047424
0.693237 0.000366 0.041107
0.754486 0.001892 0.036804
0.804810 0.001404 0.041229
0.856201 0.001251 0.030609
0.906525 0.000000 0.040863
0.941437 0.000366 0.035919
0.978485 0.005707 0.040985
0.998474 0.000000 0.042755
0.999634 0.000000 0.070221
0.993042 0.000366 0.080963
0.998871 0.055420 0.100830
0.996338 0.147644 0.120300
1.000000 0.215424 0.156219
0.999237 0.270966 0.180389
0.011780 0.067688 0.067169
0.018585 0.067688 0.066162
0.018860 0.067688 0.066162
0.023010 0.071594 0.063263
0.042633 0.068695 0.052002
0.056305 0.075653 0.052002
0.080200 0.075775 0.054382
0.114349 0.068695 0.043762
0.150146 0.071106 0.046539
0.184570 0.067535 0.049591
0.226440 0.065918 0.052124
0.275116 0.053650 0.045288
0.333191 0.036682 0.050873
0.388977 0.011139 0.043762
0.454376 0.000519 0.044037
0.523560 0.000000 0.039215
0.578003 0.000000 0.035797
0.641785 0.000519 0.038208
0.702606 0.002136 0.035431
0.760437 0.003418 0.026947
0.811127 0.000000 0.015167
0.863007 0.000000 0.024170
0.904114 0.001129 0.016815
0.944977 0.000519 0.015686
0.984192 0.003937 0.011902
1.000000 0.000000 0.028839
0.998474 0.000000 0.049866
0.997101 0.003540 0.062225
0.999634 0.100708 0.083374
0.996826 0.175476 0.121704
0.996063 0.228210 0.140930
0.996582 0.283356 0.161804
0.003296 0.080963 0.071838
0.003296 0.081085 0.063751
0.007843 0.084503 0.067413
0.014435 0.081329 0.067169
0.019348 0.084747 0.069214
0.047699 0.092102 0.066040
0.072357 0.101837 0.056793
0.106140 0.097260 0.048309
0.141296 0.097656 0.040222
0.195068 0.086029 0.040466
0.236908 0.087524 0.036682
0.286133 0.080841 0.026184
0.346100 0.070709 0.033142
0.406555 0.049835 0.032379
0.467010 0.015930 0.035553
0.530151 0.000641 0.031372
0.593964 0.000641 0.026672
0.650116 0.000000 0.017090
0.706787 0.001648 0.014435
0.763824 0.000641 0.006592
0.812012 0.001892 0.005310
0.864288 0.003296 0.003296
0.911469 0.001129 0.005066
0.952454 0.002289 0.000000
0.981415 0.000641 0.003662
0.998596 0.002533 0.009125
0.999359 0.007080 0.013153
0.999359 0.064758 0.050354
0.991791 0.144714 0.064026
0.996948 0.201019 0.098419
0.996704 0.248199 0.134735
1.000000 0.295380 0.164703
0.000000 0.108917 0.078430
0.000000 0.108154 0.078430
0.003174 0.108154 0.071594
0.000000 0.104980 0.067413
0.003174 0.109161 0.070068
0.022278 0.112823 0.060852
0.059570 0.117523 0.053375
0.105255 0.121552 0.050842
0.150146 0.128265 0.044159
0.195435 0.117523 0.044800
0.242218 0.122833 0.037445
0.305237 0.108917 0.026825
0.359497 0.105896 0.029114
0.421600 0.092468 0.020233
0.479553 0.075897 0.009613
0.542145 0.048950 0.012512
0.604462 0.014526 0.008209
0.659973 0.001526 0.001770
0.718048 0.005432 0.000000
0.767395 0.002411 0.001648
0.822296 0.003174 0.003540
0.864532 0.003174 0.001251
0.914764 0.000000 0.000000
0.955719 0.001007 0.004303
0.991028 0.001648 0.005432
0.996826 0.010620 0.003784
1.000000 0.071228 0.002258
0.996826 0.134338 0.000763
1.000000 0.179504 0.036560
0.999237 0.229218 0.077057
0.996826 0.271332 0.114868
1.000000 0.312836 0.148254
0.000000 0.133820 0.087158
0.000000 0.133820 0.085388
0.003296 0.139893 0.082367
0.003937 0.133820 0.072357
0.000000 0.137360 0.078064
0.000000 0.138000 0.071106
0.032501 0.141663 0.061218
0.088043 0.150391 0.054901
0.145203 0.159241 0.047058
0.188477 0.159271 0.040222
0.256775 0.157349 0.034027
0.309784 0.153809 0.017334
0.372894 0.144958 0.010010
0.435272 0.136993 0.003052
0.492584 0.126373 0.000885
0.552155 0.109283 0.001892
0.615326 0.093201 0.000000
0.675171 0.069916 0.002167
0.732727 0.046387 0.004791
0.780029 0.025024 0.004791
0.826202 0.014893 0.000000
0.872620 0.014526 0.000000
0.913727 0.017822 0.001129
0.957642 0.032501 0.000000
0.993439 0.065887 0.005188
0.999115 0.103088 0.003052
0.997864 0.147491 0.000885
0.996948 0.179749 0.000000
1.000000 0.220490 0.013306
0.995209 0.261353 0.036835
0.996216 0.296143 0.093628
1.000000 0.336884 0.124603
0.000000 0.172668 0.095123
0.000000 0.173676 0.091217
0.000000 0.170776 0.088287
0.000763 0.170776 0.080444
0.001007 0.176086 0.085388
0.000000 0.171387 0.073364
0.002258 0.178345 0.066406
0.050079 0.184418 0.063629
0.125610 0.193298 0.059723
0.196198 0.200104 0.041748
0.257416 0.200104 0.023010
0.315979 0.199738 0.009125
0.376434 0.192780 0.004944
0.444885 0.185822 0.000000
0.510040 0.173920 0.002777
0.571136 0.162048 0.002777
0.630890 0.151154 0.004791
0.686554 0.148254 0.001007
0.740173 0.140503 0.000000
0.786102 0.130768 0.002014
0.834290 0.122803 0.000000
0.878052 0.120667 0.002655
0.917908 0.129517 0.000000
0.963562 0.138489 0.002899
0.990509 0.155334 0.000000
1.000000 0.171265 0.000763
0.997101 0.202515 0.000000
0.997589 0.229462 0.004822
0.998993 0.258423 0.007599
0.993683 0.291962 0.000519
0.998749 0.325104 0.045929
1.000000 0.352051 0.105652
0.000000 0.213531 0.104736
0.000244 0.211884 0.103851
0.001129 0.213531 0.098297
0.001129 0.213531 0.092468
0.001129 0.216309 0.092468
0.006195 0.213013 0.087921
0.001526 0.217438 0.081451
0.024658 0.219208 0.075134
0.094849 0.230103 0.065399
0.170380 0.235413 0.038605
0.250977 0.246033 0.022522
0.322052 0.246277 0.009247
0.385040 0.244141 0.001129
0.449066 0.237671 0.000000
0.514343 0.233002 0.000000
0.581879 0.223389 0.006714
0.640900 0.212128 0.000000
0.692505 0.205170 0.003418
0.745880 0.202881 0.000000
0.794067 0.197327 0.003418
0.841003 0.194550 0.000000
0.886292 0.194794 0.002533
0.924866 0.202911 0.002258
0.964600 0.209229 0.002777
0.994446 0.217712 0.004700
1.000000 0.231110 0.000763
0.998871 0.255890 0.002167
0.997223 0.270844 0.000000
1.000000 0.294739 0.001526
0.994934 0.321442 0.000000
0.997589 0.355713 0.000000
0.996582 0.379883 0.068207
0.000000 0.261200 0.118774
0.000000 0.265137 0.118896
0.000000 0.262482 0.110931
0.000000 0.258545 0.109680
0.000000 0.261200 0.101837
0.001892 0.259949 0.100555
0.001526 0.261200 0.099792
0.001770 0.265137 0.092346
0.062622 0.275635 0.074890
0.157867 0.279175 0.056671
0.229706 0.283356 0.027588
0.313202 0.297760 0.004059
0.391357 0.296265 0.000000
0.456512 0.292847 0.001648
0.520020 0.288910 0.002167
0.583008 0.280823 0.005188
0.645447 0.270813 0.000000
0.704773 0.264252 0.003937
0.753845 0.258789 0.005554
0.803558 0.255890 0.000000
0.849213 0.258545 0.001251
0.886414 0.257172 0.000000
0.927643 0.262604 0.005188
0.966736 0.265259 0.003784
0.991272 0.274231 0.000000
0.998108 0.283844 0.000000
0.998749 0.301208 0.004059
0.995178 0.315094 0.002167
0.997986 0.337250 0.005310
0.996338 0.355072 0.000519
0.999878 0.383667 0.000000
0.996063 0.410248 0.017212
0.002533 0.312836 0.137512
0.000000 0.310303 0.132202
0.000244 0.307770 0.124084
0.003937 0.310303 0.124359
0.002777 0.307526 0.122955
0.000000 0.306366 0.113983
0.000000 0.307129 0.112457
0.000000 0.307770 0.105896
0.019318 0.320282 0.087402
0.135864 0.320648 0.067413
0.211487 0.333710 0.044800
0.301056 0.332672 0.006439
0.382507 0.348114 0.000122
0.459564 0.350891 0.000244
0.530029 0.346588 0.002167
0.594147 0.338501 0.001404
0.650360 0.335205 0.000000
0.708435 0.331299 0.000000
0.761810 0.322571 0.004425
0.806458 0.315979 0.000000
0.850494 0.314209 0.000000
0.898315 0.315613 0.006592
0.935242 0.319519 0.001404
0.967377 0.322296 0.000000
0.997345 0.326477 0.003296
1.000000 0.334442 0.005432
0.995331 0.348236 0.000000
0.999481 0.359375 0.004181
0.995331 0.374817 0.000000
0.995178 0.390747 0.000000
0.997467 0.410248 0.001404
1.000000 0.433014 0.006439
0.000000 0.362030 0.154449
0.000000 0.363556 0.146606
0.000000 0.363556 0.144196
0.000366 0.360748 0.138763
0.003937 0.363556 0.138153
0.000000 0.359009 0.135498
0.003174 0.357208 0.133209
0.000000 0.362030 0.119781
0.000519 0.369385 0.107391
0.103455 0.373413 0.091339
0.198212 0.380249 0.065033
0.281433 0.383148 0.031616
0.371399 0.393402 0.001526
0.456268 0.408325 0.003784
0.532166 0.407959 0.000000
0.594666 0.401245 0.000000
0.653412 0.398315 0.001892
0.712219 0.391235 0.000641
0.762695 0.382385 0.002411
0.808990 0.378357 0.000000
0.858337 0.374298 0.005310
0.896912 0.368988 0.000000
0.933075 0.372650 0.000000
0.967499 0.375305 0.004425
0.998230 0.375305 0.000885
0.993805 0.382538 0.000763
0.993927 0.395172 0.004791
0.999481 0.400757 0.003540
1.000000 0.409088 0.000000
1.000000 0.424011 0.000000
0.996979 0.441864 0.001526
0.997589 0.460968 0.003021
0.000000 0.417694 0.175201
0.000122 0.417694 0.171661
0.000000 0.413757 0.162933
0.000000 0.416443 0.158112
0.002289 0.415405 0.153931
0.002289 0.415405 0.151917
0.002289 0.416290 0.146606
0.000885 0.412872 0.136627
0.001007 0.412506 0.135223
0.081696 0.418823 0.109039
0.185425 0.425537 0.092468
0.274750 0.430603 0.057037
0.354675 0.441101 0.013031
0.432739 0.448425 0.000000
0.520538 0.458679 0.003540
0.605286 0.458282 0.000244
0.655060 0.454620 0.001648
0.712616 0.450195 0.000000
0.768250 0.446136 0.004547
0.813690 0.437286 0.002289
0.855804 0.433624 0.000000
0.897278 0.430084 0.001251
0.936646 0.427185 0.001129
0.971161 0.424530 0.000000
0.997345 0.426056 0.001404
0.998474 0.432617 0.002411
0.999359 0.433380 0.001648
0.994934 0.444122 0.000000
0.998352 0.454254 0.005707
0.997467 0.462616 0.000244
1.000000 0.474762 0.006592
0.994446 0.490570 0.000000
0.001770 0.467285 0.193939
0.001770 0.469421 0.189606
0.001770 0.467285 0.181763
0.001770 0.467285 0.181763
0.003937 0.467285 0.183929
0.001129 0.467896 0.176208
0.003296 0.465759 0.171661
0.002167 0.464233 0.155212
0.004181 0.461578 0.156586
0.063080 0.462708 0.141174
0.186798 0.471191 0.121429
0.269562 0.482605 0.096649
0.346710 0.486633 0.055786
0.420959 0.490936 0.000885
0.504333 0.496887 0.000000
0.592377 0.505371 0.000000
0.661377 0.514069 0.001892
0.713104 0.506500 0.005310
0.770020 0.502045 0.000000
0.813812 0.497742 0.000000
0.862244 0.490814 0.000763
0.899567 0.488159 0.001251
0.937653 0.485107 0.001770
0.973572 0.481049 0.003418
0.998230 0.478149 0.003937
0.998230 0.475494 0.005676
1.000000 0.482727 0.003021
1.000000 0.486755 0.005188
0.999634 0.494720 0.001770
1.000000 0.500671 0.005432
1.000000 0.508911 0.000000
1.000000 0.524719 0.000000
0.001892 0.517242 0.215546
0.001892 0.519409 0.217316
0.001892 0.521179 0.207703
0.003937 0.519135 0.206940
0.002014 0.520538 0.199371
0.001892 0.519135 0.193787
0.003937 0.519135 0.199860
0.000000 0.514343 0.194183
0.002014 0.515228 0.183044
0.072937 0.513336 0.169373
0.189087 0.515839 0.156586
0.266266 0.526611 0.138367
0.343933 0.526978 0.102692
0.416809 0.536865 0.051361
0.492310 0.542664 0.004547
0.568085 0.550507 0.003937
0.651794 0.556732 0.003937
0.715149 0.562286 0.002014
0.766998 0.557587 0.001648
0.816467 0.552551 0.000000
0.855804 0.549133 0.000641
0.898315 0.545837 0.000000
0.932465 0.539886 0.000000
0.966492 0.532928 0.001007
0.993561 0.532043 0.000000
0.998718 0.528259 0.000000
0.997467 0.523834 0.000000
1.000000 0.526611 0.003418
0.996216 0.531036 0.001892
1.000000 0.532806 0.006073
0.996216 0.546600 0.000000
1.000000 0.552673 0.000000
0.000000 0.567017 0.243408
0.001892 0.567139 0.239349
0.001892 0.569031 0.235565
0.001892 0.569031 0.231506
0.003418 0.565979 0.226196
0.000641 0.569672 0.227081
0.001892 0.561188 0.219727
0.003784 0.565094 0.216705
0.001007 0.564972 0.211792
0.103088 0.557007 0.199127
0.199738 0.559937 0.188019
0.270691 0.563721 0.162842
0.346954 0.569397 0.142609
0.416412 0.578003 0.120087
0.492188 0.580536 0.068604
0.558228 0.588623 0.014313
0.631775 0.590546 0.002014
0.701477 0.604462 0.004059
0.766479 0.606232 0.003784
0.816345 0.605957 0.001526
0.856293 0.600403 0.000000
0.896149 0.593811 0.000000
0.932709 0.586609 0.002655
0.965607 0.585846 0.001007
0.998230 0.578766 0.000885
1.000000 0.578766 0.000000
1.000000 0.574219 0.002014
1.000000 0.570923 0.000000
1.000000 0.570557 0.000000
0.996704 0.574463 0.001892
0.997986 0.574707 0.000000
0.998108 0.584595 0.000000
0.002167 0.614685 0.275269
0.000000 0.612549 0.269073
0.000000 0.614441 0.261475
0.000000 0.614685 0.260986
0.003540 0.609497 0.258972
0.001770 0.611389 0.258087
0.001770 0.612915 0.254913
0.003937 0.609497 0.247833
0.026001 0.605072 0.243378
0.141052 0.607483 0.231903
0.226044 0.608124 0.222534
0.287384 0.603699 0.209381
0.357605 0.611633 0.193329
0.426666 0.616333 0.171417
0.490021 0.621765 0.137421
0.552399 0.626587 0.090637
0.621918 0.632141 0.015717
0.683899 0.642517 0.000000
0.754974 0.646698 0.002167
0.813171 0.653900 0.002167
0.853638 0.649597 0.000000
0.893494 0.641632 0.002258
0.929413 0.637604 0.001129
0.964600 0.634308 0.004303
0.995209 0.624695 0.000885
0.997101 0.624695 0.001007
1.000000 0.620270 0.005066
0.999481 0.620270 0.002167
0.999634 0.616089 0.004303
0.994568 0.611664 0.000000
0.997711 0.616211 0.000122
0.998230 0.616455 0.007843
0.001648 0.658447 0.312714
0.000000 0.656830 0.307800
0.001648 0.660095 0.301605
0.000000 0.660736 0.295410
0.001770 0.657318 0.290466
0.004547 0.657196 0.291473
0.003174 0.655945 0.285919
0.017944 0.651245 0.282990
0.112335 0.653168 0.270233
0.202026 0.651764 0.271362
0.252869 0.650604 0.261108
0.316650 0.648071 0.244568
0.372681 0.651367 0.233551
0.435669 0.657806 0.214691
0.494354 0.657959 0.197754
0.552399 0.664673 0.153229
0.617615 0.666290 0.115143
0.679962 0.681213 0.042267
0.739166 0.681976 0.000000
0.795837 0.687683 0.003143
0.856049 0.692352 0.002289
0.892975 0.689819 0.003540
0.928284 0.685394 0.003937
0.959656 0.679077 0.000000
0.985840 0.674133 0.000000
1.000000 0.668579 0.003174
1.000000 0.665283 0.000641
0.993805 0.666443 0.000000
1.000000 0.658081 0.000000
1.000000 0.652893 0.002777
1.000000 0.652893 0.000244
1.000000 0.650604 0.002289
0.001526 0.698303 0.349274
0.001526 0.698303 0.342957
0.000000 0.696777 0.341431
0.000000 0.700714 0.335999
0.001892 0.698303 0.335510
0.006439 0.696777 0.325134
0.037079 0.701477 0.318817
0.120972 0.695923 0.317291
0.196228 0.693390 0.306152
0.250977 0.693115 0.307281
0.304382 0.695526 0.301208
0.352448 0.690338 0.287048
0.393677 0.686554 0.270844
0.450073 0.692871 0.264557
0.504730 0.695892 0.242035
0.560394 0.704132 0.218872
0.615082 0.708923 0.187622
0.674164 0.713989 0.152191
0.733612 0.713867 0.095795
0.779755 0.720306 0.007843
0.835541 0.723602 0.002533
0.886902 0.729034 0.002411
0.922455 0.723724 0.003937
0.960663 0.720306 0.005829
0.985596 0.715515 0.000000
0.999237 0.710815 0.002411
0.999359 0.707672 0.001526
0.995178 0.702240 0.001526
1.000000 0.698700 0.000366
1.000000 0.694397 0.003021
0.996063 0.694397 0.001526
0.998474 0.688934 0.001526
0.046967 0.735626 0.390533
0.046967 0.738159 0.385223
0.045349 0.736511 0.383575
0.043427 0.735992 0.378143
0.065338 0.740936 0.370911
0.118958 0.734222 0.369537
0.177643 0.736389 0.370911
0.221649 0.733337 0.361176
0.272888 0.731201 0.363464
0.306274 0.731689 0.344604
0.349792 0.726379 0.341949
0.386597 0.731689 0.331207
0.428070 0.724884 0.322083
0.472992 0.727783 0.316406
0.522949 0.726379 0.295532
0.568726 0.732330 0.272766
0.618622 0.737000 0.257446
0.672882 0.745605 0.231628
0.729034 0.744843 0.186981
0.772827 0.748779 0.152588
0.829498 0.756622 0.069611
0.869720 0.765717 0.000000
0.917267 0.761414 0.002533
0.956757 0.757751 0.006439
0.976715 0.755981 0.002533
0.994934 0.751312 0.000000
1.000000 0.745239 0.001526
1.000000 0.746002 0.000000
0.997467 0.737396 0.000000
1.000000 0.734741 0.001129
1.000000 0.727783 0.004181
1.000000 0.725250 0.001404
0.212433 0.772675 0.442139
0.213593 0.772675 0.432526
0.208771 0.772949 0.427460
0.209900 0.774078 0.421783
0.226105 0.774841 0.425201
0.244812 0.770782 0.415192
0.272888 0.769409 0.408875
0.302490 0.772430 0.408630
0.337402 0.767883 0.397247
0.369385 0.764709 0.393677
0.397461 0.762177 0.393677
0.430756 0.763580 0.383179
0.456177 0.763580 0.364960
0.499542 0.761292 0.363098
0.542816 0.760162 0.348419
0.586700 0.764343 0.331207
0.631134 0.768768 0.317780
0.680481 0.774841 0.287018
0.727417 0.775330 0.268341
0.772552 0.780273 0.233795
0.816589 0.785583 0.196991
0.861603 0.788361 0.137665
0.908051 0.794952 0.042908
0.946106 0.791016 0.000000
0.980408 0.787109 0.002655
0.997223 0.790527 0.000000
0.996063 0.784454 0.001251
1.000000 0.773193 0.002655
0.999115 0.774445 0.000000
0.997101 0.770416 0.000000
0.998871 0.765106 0.000122
1.000000 0.760925 0.000000
0.320831 0.804443 0.487305
0.316925 0.800629 0.483124
0.316925 0.803284 0.475037
0.315765 0.803284 0.466553
0.324615 0.803284 0.460358
0.339294 0.803284 0.458191
0.351318 0.801392 0.459106
0.374573 0.800262 0.453766
0.402679 0.800507 0.448853
0.417328 0.799896 0.446442
0.449097 0.795441 0.441254
0.475769 0.796844 0.431274
0.504761 0.793945 0.425079
0.532074 0.789886 0.413422
0.565582 0.791534 0.399658
0.604919 0.796356 0.395721
0.641266 0.798615 0.373810
0.684143 0.800018 0.354095
0.727264 0.801636 0.330444
0.767395 0.809113 0.312866
0.808502 0.811127 0.281616
0.853760 0.812408 0.244781
0.896912 0.815063 0.194946
0.928894 0.817474 0.138550
0.966492 0.819244 0.051270
0.993439 0.819366 0.000000
1.000000 0.813538 0.000641
1.000000 0.807220 0.001129
0.997223 0.803284 0.000763
0.997223 0.803284 0.000000
0.999878 0.795593 0.001129
1.000000 0.788757 0.000000
0.405579 0.829346 0.532196
0.405579 0.832275 0.524353
0.404572 0.831268 0.523346
0.405212 0.830872 0.515137
0.411407 0.833282 0.510681
0.416962 0.834534 0.511597
0.429626 0.829498 0.514496
0.450500 0.826324 0.507660
0.465302 0.826447 0.496796
0.478699 0.826202 0.494629
0.495148 0.829620 0.489960
0.521576 0.825958 0.483490
0.546112 0.828217 0.481995
0.570770 0.825684 0.469360
0.599243 0.816589 0.456940
0.630981 0.824432 0.452759
0.659973 0.825439 0.436066
0.698181 0.828583 0.423920
0.739807 0.829987 0.404694
0.772308 0.833771 0.379761
0.813660 0.830872 0.355103
0.852753 0.834930 0.329163
0.888428 0.840118 0.289825
0.922455 0.843018 0.255554
0.957245 0.844147 0.197479
0.990631 0.849091 0.144745
0.999634 0.840118 0.085052
0.998993 0.844025 0.002899
0.997101 0.833282 0.000000
0.996063 0.832275 0.000000
0.999878 0.828461 0.002899
1.000000 0.820496 0.000000
0.484406 0.857056 0.579010
0.488190 0.859070 0.581787
0.485291 0.857056 0.576996
0.484406 0.856171 0.573334
0.481873 0.852753 0.566467
0.490082 0.856171 0.560272
0.497406 0.859222 0.560913
0.518036 0.856171 0.559418
0.517273 0.855164 0.550537
0.537262 0.855042 0.548401
0.555359 0.852753 0.546753
0.572296 0.853027 0.539185
0.591400 0.849854 0.533722
0.610626 0.850616 0.518036
0.631378 0.844421 0.511078
0.657166 0.845306 0.506927
0.681000 0.848328 0.493744
0.711456 0.852264 0.482727
0.747772 0.854523 0.465912
0.781921 0.856171 0.450623
0.817352 0.856537 0.428467
0.845917 0.860107 0.405060
0.881744 0.858948 0.386108
0.913605 0.864014 0.343475
0.943726 0.864899 0.304901
0.984314 0.870209 0.266693
0.999359 0.868561 0.216217
0.996948 0.867554 0.178284
0.999115 0.860596 0.106934
1.000000 0.859467 0.013428
0.999237 0.855286 0.003174
1.000000 0.849213 0.008728
0.557892 0.876160 0.633911
0.557770 0.876160 0.627838
0.554718 0.880066 0.626068
0.554718 0.880066 0.619751
0.553223 0.875000 0.615326
0.556000 0.873627 0.613556
0.563324 0.876160 0.614319
0.572937 0.873871 0.612671
0.583557 0.876160 0.612152
0.591919 0.879700 0.603424
0.607727 0.874268 0.599884
0.621368 0.872986 0.596100
0.637695 0.874786 0.589264
0.653625 0.869843 0.585205
0.670715 0.869080 0.577240
0.689697 0.871094 0.571167
0.708557 0.869843 0.549164
0.735504 0.871216 0.550049
0.767639 0.874512 0.529144
0.788513 0.876160 0.511444
0.818604 0.876923 0.501953
0.849854 0.877686 0.483246
0.880219 0.880829 0.460999
0.909698 0.880066 0.441254
0.933197 0.884003 0.408356
0.962433 0.890320 0.370422
0.996216 0.888062 0.322479
0.996582 0.892365 0.277679
1.000000 0.884766 0.234802
0.999756 0.883240 0.200409
0.999359 0.876282 0.114655
0.996826 0.879333 0.004669
0.618469 0.896149 0.682495
0.618469 0.896271 0.682373
0.618469 0.899445 0.677948
0.615204 0.896149 0.674652
0.615051 0.896912 0.667419
0.619110 0.894745 0.666168
0.622406 0.899445 0.662262
0.632385 0.896790 0.662628
0.639740 0.897797 0.655670
0.651611 0.897278 0.648315
0.656921 0.890961 0.651245
0.667328 0.894867 0.647705
0.684387 0.892487 0.632141
0.698151 0.892853 0.634399
0.710175 0.891327 0.629120
0.724854 0.887665 0.625702
0.740173 0.890198 0.609100
0.757507 0.892853 0.608246
0.782043 0.893860 0.597229
0.810760 0.892212 0.583191
0.833160 0.897522 0.568390
0.857697 0.898163 0.557617
0.882874 0.896790 0.538910
0.906769 0.897156 0.514099
0.930695 0.898285 0.483368
0.959137 0.907013 0.454163
0.983673 0.904633 0.425049
1.000000 0.908051 0.385345
0.995697 0.904633 0.341705
0.999634 0.904633 0.302216
0.999359 0.900574 0.251495
0.999359 0.896790 0.206970
0.667053 0.912201 0.726379
0.670990 0.916138 0.723480
0.670715 0.916382 0.722198
0.673889 0.909302 0.718536
0.665649 0.909790 0.715118
0.668060 0.916138 0.706787
0.673248 0.918030 0.709930
0.683624 0.913605 0.711578
0.684753 0.912201 0.710693
0.693878 0.915009 0.705750
0.701447 0.915619 0.701202
0.712585 0.909302 0.692108
0.725494 0.908783 0.692108
0.734741 0.912720 0.686646
0.742706 0.909302 0.682129
