Klick/Luts/Coastal Film.cube
#Created by: Adobe Photoshop Export Color Lookup Plugin
#Copyright: (C) Copyright 2022 Tim Martin and Presetpro.com
TITLE "Presetpro - Coastal Film.jpg"
#LUT size
LUT_3D_SIZE 5
#data domain
#LUT data points
DOMAIN_MIN 0.000000 0.000000 0.000000
DOMAIN_MAX 0.903226 0.903226 0.903226
0.031372 0.027466 0.047058
0.091949 0.040497 0.057953
0.424133 0.002167 0.065277
0.848602 0.003937 0.056152
0.992920 0.003540 0.124359
0.000000 0.133820 0.087158
0.088043 0.150391 0.054901
0.492584 0.126373 0.000885
0.872620 0.014526 0.000000
1.000000 0.220490 0.013306
0.001770 0.467285 0.193939
0.002167 0.464233 0.155212
0.504333 0.496887 0.000000
0.899567 0.488159 0.001251
0.999634 0.494720 0.001770
0.212433 0.772675 0.442139
0.302490 0.772430 0.408630
0.542816 0.760162 0.348419
0.861603 0.788361 0.137665
0.999115 0.774445 0.000000
0.723206 0.928284 0.767120
0.728912 0.929047 0.751038
0.778870 0.928650 0.735352
0.871613 0.927765 0.688812
0.992920 0.940033 0.537781
0.000885 0.050995 0.137756
0.084625 0.047943 0.132050
0.449829 0.006073 0.145111
0.857330 0.001251 0.118011
0.996582 0.118530 0.082611
0.003052 0.160400 0.179993
0.106384 0.184814 0.186951
0.502563 0.177856 0.162170
0.879089 0.161774 0.100189
1.000000 0.262482 0.006073
0.000000 0.487762 0.316498
0.128754 0.492584 0.304626
0.530518 0.513458 0.204407
0.901215 0.496002 0.014404
1.000000 0.511322 0.001770
0.373840 0.776245 0.533966
0.421631 0.776611 0.508301
0.575836 0.768005 0.454803
0.868195 0.792816 0.330933
1.000000 0.777496 0.061493
0.756226 0.925629 0.806824
0.757629 0.929047 0.791138
0.789764 0.928650 0.770264
0.877289 0.929932 0.723083
0.999237 0.940918 0.615692
0.000000 0.109406 0.396698
0.035004 0.117249 0.403259
0.488251 0.060577 0.402771
0.856445 0.122192 0.392639
0.997467 0.427307 0.470428
0.000885 0.233643 0.412750
0.093842 0.247559 0.432373
0.528748 0.258057 0.440704
0.863403 0.331818 0.438049
0.999634 0.479919 0.474213
0.011780 0.496887 0.492950
0.221588 0.514709 0.496490
0.575317 0.544312 0.514709
0.875153 0.565308 0.499512
1.000000 0.600616 0.468048
0.467438 0.786224 0.680817
0.539673 0.787109 0.682983
0.676392 0.786591 0.665527
0.859100 0.800140 0.601501
1.000000 0.785339 0.510437
0.746094 0.934357 0.840973
0.773926 0.930786 0.837555
0.825928 0.932190 0.838470
0.875031 0.932587 0.808472
0.986084 0.945343 0.749634
0.000000 0.239349 0.694397
0.099030 0.255035 0.717010
0.586304 0.286926 0.747894
0.889069 0.290466 0.734863
0.998749 0.468689 0.691345
0.001770 0.361420 0.704895
0.192017 0.360535 0.713104
0.598450 0.410248 0.750183
0.886932 0.429871 0.751953
0.999634 0.558014 0.720581
0.000885 0.538239 0.701324
0.206451 0.540405 0.704346
0.590637 0.594055 0.749664
0.865540 0.651611 0.778015
1.000000 0.714355 0.780640
0.432892 0.776611 0.794952
0.511841 0.775330 0.788879
0.669067 0.783569 0.794952
0.855042 0.807983 0.813293
0.996948 0.831116 0.814941
0.775726 0.937378 0.904236
0.793549 0.934357 0.905121
0.835419 0.935120 0.908539
0.897278 0.936493 0.898682
0.971802 0.944336 0.871216
0.427216 0.511444 0.925110
0.527771 0.522827 0.933075
0.719666 0.560272 0.934723
0.913483 0.644806 0.950531
0.996063 0.652252 0.932587
0.455536 0.572418 0.927002
0.543457 0.583801 0.932190
0.727509 0.619476 0.933838
0.908173 0.686523 0.943451
0.998749 0.697418 0.932953
0.439362 0.673370 0.917908
0.538544 0.687408 0.921326
0.715759 0.713593 0.928650
0.897797 0.771912 0.936890
0.997864 0.788879 0.938263
0.536377 0.818115 0.924744
0.575592 0.817719 0.927521
0.657806 0.807220 0.925232
0.859467 0.838959 0.934845
0.984436 0.876038 0.943970
0.751434 0.929047 0.948273
0.771149 0.931702 0.948639
0.818451 0.936493 0.950775
0.885529 0.940430 0.950409
0.968262 0.952576 0.956482
