Klick/Luts/Coastal Film.cube
#Created by: Adobe Photoshop Export Color Lookup Plugin
#Copyright: (C) Copyright 2022 Tim Martin and Presetpro.com
TITLE "Presetpro - Coastal Film.jpg"
#LUT size
LUT_3D_SIZE 8
#data domain
#LUT data points
DOMAIN_MIN 0.000000 0.000000 0.000000
DOMAIN_MAX 0.903226 0.903226 0.903226
0.031372 0.027466 0.047058
0.039734 0.031891 0.051483
0.119659 0.036316 0.061737
0.298401 0.002411 0.058838
0.559418 0.002014 0.060852
0.802032 0.002533 0.065521
0.978638 0.000000 0.069702
0.992920 0.003540 0.124359
0.011780 0.067688 0.067169
0.042633 0.068695 0.052002
0.150146 0.071106 0.046539
0.333191 0.036682 0.050873
0.578003 0.000000 0.035797
0.811127 0.000000 0.015167
0.984192 0.003937 0.011902
0.999634 0.100708 0.083374
0.000000 0.172668 0.095123
0.001007 0.176086 0.085388
0.125610 0.193298 0.059723
0.376434 0.192780 0.004944
0.630890 0.151154 0.004791
0.834290 0.122803 0.000000
0.990509 0.155334 0.000000
0.998993 0.258423 0.007599
0.000000 0.362030 0.154449
0.003937 0.363556 0.138153
0.000519 0.369385 0.107391
0.371399 0.393402 0.001526
0.653412 0.398315 0.001892
0.858337 0.374298 0.005310
0.998230 0.375305 0.000885
1.000000 0.409088 0.000000
0.000000 0.567017 0.243408
0.003418 0.565979 0.226196
0.001007 0.564972 0.211792
0.346954 0.569397 0.142609
0.631775 0.590546 0.002014
0.856293 0.600403 0.000000
0.998230 0.578766 0.000885
1.000000 0.570557 0.000000
0.046967 0.735626 0.390533
0.065338 0.740936 0.370911
0.272888 0.731201 0.363464
0.428070 0.724884 0.322083
0.618622 0.737000 0.257446
0.829498 0.756622 0.069611
0.976715 0.755981 0.002533
0.997467 0.737396 0.000000
0.484406 0.857056 0.579010
0.481873 0.852753 0.566467
0.517273 0.855164 0.550537
0.591400 0.849854 0.533722
0.681000 0.848328 0.493744
0.817352 0.856537 0.428467
0.943726 0.864899 0.304901
0.999115 0.860596 0.106934
0.723206 0.928284 0.767120
0.722321 0.925476 0.762054
0.734985 0.928284 0.750671
0.758881 0.923462 0.744843
0.799500 0.925110 0.725250
0.851379 0.926514 0.690704
0.922333 0.932587 0.644531
0.992920 0.940033 0.537781
0.015686 0.039215 0.087280
0.033386 0.042633 0.080444
0.119293 0.047058 0.081451
0.317871 0.019501 0.087158
0.565369 0.000519 0.051758
0.804810 0.001892 0.038574
0.979889 0.000885 0.037842
1.000000 0.047058 0.103485
0.003937 0.072601 0.099060
0.027466 0.084381 0.096649
0.139404 0.086792 0.093628
0.338104 0.069580 0.085266
0.588776 0.002014 0.051483
0.818604 0.000000 0.003937
0.991669 0.000000 0.001007
0.999115 0.151917 0.070862
0.000519 0.185455 0.143707
0.000519 0.193298 0.135864
0.134064 0.207458 0.101562
0.387695 0.194305 0.071594
0.631409 0.166840 0.018982
0.835815 0.158478 0.000000
0.993927 0.186707 0.006836
1.000000 0.273987 0.000519
0.000519 0.370392 0.207581
0.000000 0.374298 0.197723
0.053223 0.374817 0.172668
0.385162 0.401367 0.093231
0.663788 0.401245 0.002533
0.857330 0.375305 0.004791
0.993286 0.386566 0.005707
0.995453 0.421875 0.000519
0.003418 0.573456 0.307037
0.002411 0.578400 0.290955
0.091309 0.569519 0.256561
0.368103 0.578766 0.214569
0.639496 0.595093 0.075928
0.855804 0.605194 0.000000
0.994293 0.584717 0.000000
0.999481 0.571045 0.000763
0.241638 0.742065 0.444550
0.233795 0.740936 0.420380
0.306122 0.740051 0.402405
0.452637 0.729309 0.368530
0.628357 0.741577 0.310181
0.827942 0.757751 0.191650
0.983704 0.754211 0.002258
0.997986 0.737885 0.000000
0.529419 0.853149 0.617859
0.530701 0.853149 0.607727
0.546356 0.857697 0.581421
0.607849 0.851227 0.564087
0.690857 0.846161 0.526276
0.816589 0.860992 0.469971
0.944977 0.864014 0.364471
1.000000 0.860992 0.216339
0.733215 0.928528 0.782806
0.739288 0.928284 0.774841
0.742828 0.931946 0.765717
0.765198 0.928802 0.753448
0.801392 0.927643 0.738251
0.854279 0.930542 0.714874
0.920685 0.932068 0.660980
0.996063 0.940277 0.564209
0.000000 0.054016 0.168732
0.000000 0.055420 0.172150
0.119781 0.057800 0.161926
0.318512 0.034271 0.162933
0.576111 0.002899 0.176605
0.809753 0.001007 0.164703
0.979889 0.004059 0.121796
0.996338 0.140533 0.075409
0.002899 0.102966 0.183929
0.000000 0.107391 0.184418
0.144196 0.108398 0.192261
0.338623 0.114227 0.179993
0.593201 0.102570 0.198090
0.817596 0.052338 0.171509
0.990662 0.100677 0.125092
0.999481 0.199738 0.034149
0.000000 0.198212 0.214905
0.000000 0.211884 0.221741
0.163818 0.223755 0.224670
0.390625 0.229584 0.203156
0.633789 0.223755 0.193298
0.835693 0.225159 0.162415
0.992432 0.260193 0.114594
1.000000 0.311188 0.004028
0.002411 0.387573 0.294250
0.009613 0.390503 0.301056
0.183655 0.404663 0.280182
0.411621 0.416443 0.233643
0.668579 0.409576 0.187469
0.859070 0.399353 0.143555
0.994965 0.416565 0.072968
0.997101 0.448822 0.006317
0.004059 0.581665 0.397339
0.096802 0.589020 0.379913
0.264130 0.592438 0.370911
0.410217 0.582306 0.332703
0.653290 0.611145 0.265137
0.856323 0.609131 0.190002
0.994324 0.588623 0.036926
0.998993 0.590546 0.001007
0.318176 0.743073 0.511719
0.361298 0.746490 0.518158
0.412537 0.744843 0.492096
0.502075 0.738007 0.464020
0.641907 0.746490 0.421143
0.835419 0.760681 0.344604
0.973938 0.758636 0.255157
0.998474 0.743469 0.067047
0.566498 0.856171 0.669220
0.587738 0.856689 0.670715
0.605316 0.854279 0.648468
0.640869 0.854523 0.626312
0.705505 0.849213 0.592926
0.822540 0.860596 0.552826
0.940430 0.864014 0.473724
0.997986 0.866028 0.372559
0.753967 0.926117 0.805939
0.766846 0.928162 0.809875
0.766357 0.928284 0.796570
0.782928 0.931061 0.785828
0.808868 0.928162 0.765594
0.856445 0.931580 0.748016
0.923981 0.932068 0.706757
0.997589 0.937500 0.632141
0.000000 0.083862 0.311951
0.000000 0.087799 0.316864
0.136475 0.094635 0.325714
0.353302 0.060333 0.317383
0.578033 0.002014 0.297272
0.811768 0.043274 0.315491
0.972290 0.254639 0.350891
0.996460 0.322449 0.333191
0.002411 0.142822 0.324219
0.000000 0.144714 0.327240
0.163422 0.152039 0.348236
0.374817 0.136871 0.329651
0.600922 0.133972 0.315002
0.815216 0.178864 0.334595
0.975983 0.300049 0.368500
0.997589 0.354828 0.337219
0.000000 0.238434 0.339905
0.000000 0.242371 0.341034
0.175201 0.260071 0.363434
0.407684 0.271332 0.365967
0.627350 0.293854 0.357117
0.820007 0.359497 0.382629
0.972443 0.384308 0.369995
0.997986 0.419342 0.333038
0.000000 0.398834 0.390991
0.007843 0.403259 0.403137
0.218445 0.416046 0.402252
0.446777 0.439575 0.410614
0.659729 0.451721 0.399872
0.846954 0.465515 0.396301
0.981659 0.487518 0.366577
1.000000 0.511047 0.338379
0.143463 0.597992 0.499786
0.229126 0.604706 0.493988
0.367218 0.605713 0.501831
0.499939 0.610138 0.491943
0.668060 0.623291 0.442261
0.850891 0.618988 0.402893
0.988251 0.610260 0.359985
0.999237 0.622894 0.319519
0.390778 0.752808 0.608734
0.425171 0.750916 0.614044
0.498535 0.752319 0.605835
0.582794 0.755219 0.594940
0.667572 0.749664 0.553833
0.830750 0.767365 0.510437
0.966370 0.764587 0.455414
0.998474 0.749420 0.370514
0.584686 0.858582 0.723724
0.606842 0.858063 0.720428
0.650360 0.858582 0.727783
0.695129 0.859467 0.709290
0.740173 0.854645 0.684357
0.825317 0.861115 0.651215
0.936127 0.867950 0.604034
0.996948 0.871338 0.534576
0.757751 0.931061 0.827820
0.762177 0.931702 0.830353
0.789124 0.927521 0.833008
0.806854 0.928650 0.829346
0.824677 0.927521 0.807343
0.862000 0.928284 0.792145
0.917542 0.935974 0.765717
0.988220 0.940430 0.707397
0.000000 0.135376 0.482635
0.002014 0.137390 0.491486
0.129761 0.150177 0.499329
0.423492 0.151184 0.523499
0.623932 0.086395 0.498444
0.806854 0.135254 0.467712
0.963074 0.265289 0.485931
0.999634 0.422150 0.523499
0.003937 0.191925 0.488068
0.000000 0.195831 0.492615
0.163910 0.209503 0.507812
0.435150 0.221252 0.533234
0.637726 0.183197 0.509705
0.809387 0.224792 0.482513
0.963715 0.329559 0.502991
1.000000 0.460358 0.543610
0.002045 0.291473 0.489594
0.005829 0.300171 0.500214
0.192535 0.311951 0.521088
0.452728 0.338013 0.548279
0.655304 0.333710 0.536774
0.815430 0.365082 0.509186
0.959900 0.446564 0.537506
0.997467 0.560638 0.589996
0.001526 0.423767 0.520447
0.001007 0.433502 0.518036
0.202881 0.438934 0.525848
0.461090 0.468933 0.558655
0.667053 0.495880 0.572937
0.815948 0.523956 0.567505
0.942200 0.589111 0.604828
0.999634 0.622528 0.604462
0.038513 0.592438 0.588501
0.183685 0.592560 0.583557
0.350403 0.603302 0.588623
0.522095 0.616089 0.605835
0.684662 0.633667 0.610138
0.837067 0.649872 0.614197
0.955109 0.664154 0.607239
1.000000 0.677185 0.583191
0.423920 0.763062 0.695892
0.468842 0.757629 0.701996
0.551941 0.761688 0.704773
0.632782 0.763062 0.699951
0.717682 0.768372 0.696930
0.831116 0.775330 0.664154
0.953064 0.770660 0.622528
0.998993 0.760925 0.578156
0.617218 0.862000 0.786865
0.632538 0.859589 0.789001
0.666290 0.859955 0.785583
0.721069 0.863129 0.784698
0.778900 0.862885 0.776855
0.825317 0.861603 0.749176
0.924744 0.873749 0.718170
0.998993 0.870850 0.678833
0.739288 0.932190 0.854645
0.748535 0.935608 0.853394
0.776459 0.933594 0.856934
0.812775 0.932068 0.861084
0.844421 0.930939 0.853760
0.869843 0.932068 0.839722
0.917389 0.933960 0.819885
0.978882 0.940430 0.790161
0.000000 0.215454 0.657196
0.000519 0.219360 0.659729
0.171143 0.233673 0.671112
0.455017 0.248322 0.696533
0.693512 0.278839 0.721710
0.842651 0.246582 0.689697
0.956360 0.325378 0.652527
0.996460 0.455933 0.659576
0.001404 0.263000 0.658966
0.003418 0.265900 0.665680
0.205811 0.278809 0.681366
0.466003 0.300323 0.699066
0.701355 0.339539 0.728271
0.844543 0.310822 0.698700
0.958130 0.380402 0.662140
0.998993 0.493622 0.670105
0.001404 0.363556 0.661102
0.003021 0.369385 0.670105
0.236298 0.371918 0.681366
0.481689 0.399353 0.701843
0.697052 0.447449 0.733734
0.842499 0.429871 0.712219
0.944977 0.480469 0.676422
1.000000 0.571045 0.696533
0.000000 0.455658 0.645538
0.005066 0.462616 0.652527
0.266663 0.481720 0.669952
0.489166 0.510681 0.705750
0.694885 0.558258 0.737671
0.836060 0.569366 0.731689
0.934479 0.598083 0.707397
1.000000 0.665527 0.733093
0.050690 0.605347 0.697784
0.180542 0.609619 0.695892
0.329926 0.613434 0.702881
0.481720 0.615448 0.701202
0.681610 0.651764 0.735626
0.827698 0.687683 0.755371
0.925629 0.708313 0.752319
0.995209 0.758636 0.781281
0.382446 0.743469 0.758911
0.422668 0.744843 0.765228
0.493378 0.748383 0.755859
0.601776 0.753845 0.764587
0.717041 0.761688 0.769012
0.827209 0.780151 0.780151
0.930695 0.794434 0.786102
1.000000 0.803680 0.778137
0.615692 0.864380 0.831268
0.629211 0.864380 0.833893
0.673492 0.867432 0.838470
0.745850 0.866425 0.844910
0.797607 0.871857 0.846313
0.855682 0.870972 0.834656
0.914490 0.879700 0.816589
0.992676 0.879059 0.793060
0.767487 0.933594 0.894745
0.780396 0.934967 0.897034
0.793030 0.933075 0.895905
0.816956 0.932831 0.893738
0.853271 0.933472 0.891449
0.890594 0.940430 0.891968
0.916382 0.933594 0.874268
0.975708 0.944336 0.859222
0.000885 0.334991 0.820007
0.070374 0.333344 0.815704
0.321320 0.348663 0.825806
0.527130 0.368134 0.833282
0.714996 0.411407 0.848206
0.883759 0.472748 0.873505
0.977753 0.448730 0.841370
1.000000 0.518677 0.803436
0.005066 0.367493 0.821655
0.135895 0.376465 0.821655
0.343323 0.384705 0.832275
0.530151 0.410767 0.841492
0.723114 0.452881 0.852509
0.877808 0.512848 0.865021
0.974335 0.489319 0.846558
0.999115 0.552704 0.803925
0.157135 0.461365 0.813049
0.206573 0.454254 0.823669
0.361542 0.462097 0.822906
0.546234 0.488159 0.839600
0.718048 0.529938 0.855408
0.870972 0.589752 0.872498
0.961914 0.566101 0.848328
1.000000 0.613281 0.812775
0.096954 0.535217 0.804291
0.229736 0.541046 0.803925
0.402527 0.558258 0.816589
0.548492 0.570770 0.836334
0.720459 0.614166 0.849335
0.865021 0.673004 0.868958
0.949646 0.659821 0.856171
0.997589 0.691589 0.827332
0.147552 0.632782 0.810120
0.211395 0.630890 0.803680
0.327148 0.632660 0.810120
0.509644 0.646942 0.815186
0.698303 0.683777 0.845551
0.845428 0.740570 0.867950
0.934601 0.748535 0.864136
0.985840 0.763580 0.848846
0.393433 0.759521 0.846191
0.418854 0.756104 0.839355
0.481842 0.757751 0.839233
0.569885 0.756104 0.844421
0.669464 0.754730 0.841370
0.825043 0.787109 0.863525
0.925385 0.818970 0.877808
0.979523 0.836945 0.875153
0.584686 0.849213 0.871857
0.603943 0.857819 0.875793
0.637573 0.853271 0.870972
0.698151 0.857056 0.877930
0.765106 0.861115 0.873627
0.851227 0.864014 0.884125
0.919800 0.876678 0.892365
0.976990 0.888947 0.895020
0.744965 0.935120 0.920319
0.754974 0.935486 0.922333
0.780762 0.934479 0.922333
0.815430 0.933075 0.925232
0.862488 0.938538 0.930695
0.895752 0.944336 0.928162
0.930298 0.940796 0.920319
0.975220 0.948273 0.914124
0.427216 0.511444 0.925110
0.466919 0.518036 0.935120
0.548004 0.527130 0.929291
0.661469 0.550659 0.934479
0.779907 0.574707 0.937012
0.890594 0.627075 0.941956
0.971680 0.668823 0.944336
0.996063 0.652252 0.932587
0.443024 0.539032 0.930939
0.483124 0.545990 0.932068
0.558502 0.554199 0.925995
0.664398 0.570770 0.931061
0.783325 0.601135 0.933075
0.890594 0.646698 0.944336
0.970795 0.689301 0.941162
0.999481 0.665771 0.929169
0.467285 0.591919 0.931183
0.495758 0.589996 0.932953
0.570007 0.601135 0.931183
0.672729 0.620239 0.933197
0.783936 0.651093 0.937500
0.885651 0.689819 0.938019
0.963074 0.728912 0.941803
1.000000 0.706390 0.930420
0.480957 0.654907 0.920441
0.518555 0.658813 0.919281
0.594421 0.671204 0.925873
0.673615 0.677551 0.933716
0.781281 0.700073 0.932587
0.880096 0.737762 0.938019
0.956116 0.779877 0.945862
0.998474 0.760773 0.934082
0.397583 0.704895 0.916138
0.436554 0.703857 0.912323
0.523468 0.712341 0.923462
0.655518 0.728912 0.921814
0.759796 0.747650 0.929047
0.867432 0.783813 0.938904
0.948151 0.823425 0.947113
0.995697 0.814697 0.938141
0.503510 0.800507 0.925873
0.513367 0.792786 0.925232
0.548279 0.794708 0.921814
0.604034 0.788239 0.923340
0.704132 0.783691 0.916260
0.842499 0.819611 0.934601
0.936127 0.860107 0.946106
0.990387 0.864532 0.946869
0.640991 0.875916 0.939545
0.647308 0.873383 0.933838
0.670349 0.876282 0.933594
0.709808 0.869324 0.937012
0.759033 0.871368 0.932190
0.813171 0.866669 0.932190
0.911591 0.888062 0.935852
0.972168 0.909424 0.948639
0.751434 0.929047 0.948273
0.759644 0.936127 0.948639
0.777863 0.931183 0.951538
0.803406 0.930542 0.950531
0.838470 0.936493 0.954071
0.877045 0.935852 0.947632
0.919678 0.940033 0.955597
0.968262 0.952576 0.956482
