Klick/Luts/Golden Light.cube
#Created by: Adobe Photoshop Export Color Lookup Plugin
#Copyright: (C) Copyright 2024 Tim Martin and Presetpro.com
TITLE "Presetpro - Golden Light .jpg"
#LUT size
LUT_3D_SIZE 5
#data domain
#LUT data points
DOMAIN_MIN 0.000000 0.000000 0.000000
DOMAIN_MAX 0.903226 0.903226 0.903226
0.000000 0.000000 0.000000
0.146362 0.005463 0.005920
0.452484 0.000000 0.010040
0.758759 0.000000 0.008575
0.950012 0.000183 0.057098
0.001526 0.173737 0.024078
0.142242 0.184021 0.003937
0.495331 0.127563 0.001984
0.773895 0.112457 0.000458
0.951355 0.198364 0.000000
0.000885 0.462677 0.110931
0.113342 0.460541 0.088196
0.484161 0.473236 0.000000
0.779724 0.461426 0.001282
0.951630 0.455902 0.001770
0.137390 0.723267 0.227142
0.277130 0.722015 0.212921
0.485687 0.719574 0.181244
0.744293 0.739075 0.086090
0.950012 0.734009 0.000000
0.333099 0.923676 0.386444
0.447083 0.922699 0.374146
0.580444 0.923676 0.362122
0.741425 0.925201 0.337219
0.929962 0.929382 0.258484
0.000000 0.006348 0.177216
0.147705 0.006348 0.171143
0.458801 0.000000 0.178741
0.758942 0.001343 0.159027
0.951630 0.026611 0.151642
0.001526 0.184906 0.202179
0.161285 0.198242 0.205231
0.490753 0.186890 0.192963
0.771210 0.162842 0.153320
0.951813 0.222443 0.113983
0.000885 0.464905 0.284668
0.221008 0.471466 0.274994
0.496399 0.480652 0.225159
0.779724 0.470184 0.119690
0.950928 0.469299 0.115875
0.195007 0.726379 0.388428
0.328033 0.726562 0.376556
0.502991 0.723724 0.343811
0.743408 0.737488 0.283142
0.951630 0.736145 0.123749
0.346588 0.924072 0.516571
0.459930 0.923248 0.508881
0.586792 0.922699 0.493835
0.742523 0.924072 0.470825
0.934601 0.928253 0.410522
0.000000 0.037018 0.429047
0.114441 0.043091 0.439514
0.490967 0.000885 0.438873
0.760925 0.065521 0.427277
0.951813 0.208069 0.457672
0.001099 0.227753 0.436035
0.170258 0.231689 0.447632
0.500153 0.238068 0.455261
0.759399 0.277252 0.449158
0.950745 0.348969 0.462738
0.030609 0.469482 0.472748
0.264954 0.475403 0.477814
0.513672 0.492035 0.488098
0.761993 0.504913 0.476471
0.950745 0.525299 0.450684
0.248779 0.729706 0.569061
0.381744 0.731842 0.567932
0.543854 0.734650 0.558807
0.742950 0.742950 0.525970
0.950928 0.738770 0.467377
0.347839 0.925842 0.648468
0.471649 0.925385 0.648834
0.607117 0.925842 0.644714
0.744751 0.923431 0.624207
0.926025 0.929779 0.592957
0.000000 0.110382 0.683350
0.181152 0.115570 0.689423
0.522461 0.132202 0.711090
0.772491 0.136597 0.707581
0.951630 0.233551 0.687286
0.000458 0.283569 0.682648
0.227844 0.283142 0.690063
0.527283 0.306122 0.709747
0.767456 0.320984 0.713501
0.950928 0.392120 0.700989
0.006409 0.483093 0.678436
0.236786 0.482452 0.675873
0.513702 0.511292 0.708679
0.752167 0.547607 0.725677
0.937012 0.584381 0.727081
0.221863 0.723969 0.729187
0.362518 0.724609 0.726501
0.542725 0.728546 0.732025
0.737061 0.745575 0.741699
0.930786 0.756744 0.739471
0.372406 0.927185 0.794830
0.489655 0.925385 0.791077
0.619568 0.927551 0.791290
0.761749 0.926453 0.787140
0.921448 0.930573 0.769623
0.208923 0.233307 0.915985
0.367523 0.240784 0.916260
0.571472 0.259583 0.918640
0.777496 0.306641 0.925385
0.950012 0.313812 0.921692
0.215729 0.379486 0.914520
0.369446 0.385559 0.915863
0.570343 0.405243 0.918396
0.774017 0.446838 0.922150
0.949829 0.454468 0.920380
0.210205 0.556427 0.906158
0.369202 0.563232 0.911041
0.555939 0.569519 0.912964
0.763977 0.608429 0.921692
0.935883 0.618225 0.920135
0.225250 0.747833 0.911438
0.355133 0.745636 0.907867
0.510925 0.738190 0.907928
0.735535 0.755219 0.917755
0.927368 0.781433 0.925385
0.343536 0.922272 0.925842
0.463165 0.925201 0.927612
0.601410 0.925842 0.927795
0.755463 0.926971 0.926971
0.922089 0.929962 0.928375
