Klick/Luts/Golden Light.cube
#Created by: Adobe Photoshop Export Color Lookup Plugin
#Copyright: (C) Copyright 2024 Tim Martin and Presetpro.com
TITLE "Presetpro - Golden Light .jpg"
#LUT size
LUT_3D_SIZE 8
#data domain
#LUT data points
DOMAIN_MIN 0.000000 0.000000 0.000000
DOMAIN_MAX 0.903226 0.903226 0.903226
0.000000 0.000000 0.000000
0.082489 0.000275 0.000519
0.175842 0.001984 0.005402
0.353607 0.000763 0.011810
0.548676 0.000000 0.006866
0.721375 0.001282 0.005920
0.859741 0.001526 0.018799
0.950012 0.000183 0.057098
0.005402 0.078796 0.012085
0.077789 0.084717 0.006409
0.199005 0.084198 0.000000
0.376526 0.064270 0.001007
0.561188 0.066162 0.001282
0.724548 0.065216 0.002716
0.867615 0.064514 0.000275
0.950073 0.085327 0.039642
0.000519 0.213745 0.031036
0.065979 0.212769 0.026276
0.183258 0.226044 0.000000
0.401611 0.212982 0.000000
0.586517 0.157135 0.000000
0.737366 0.129974 0.002106
0.872437 0.138153 0.001007
0.950012 0.235657 0.000000
0.000000 0.380402 0.079803
0.064758 0.379639 0.066467
0.131561 0.381805 0.052704
0.385406 0.393402 0.003174
0.596039 0.384064 0.002167
0.750305 0.364471 0.001465
0.875916 0.359497 0.001221
0.950592 0.381805 0.000397
0.000000 0.539734 0.140839
0.067688 0.540924 0.131073
0.174255 0.537323 0.115845
0.372437 0.542694 0.082184
0.566315 0.554504 0.000000
0.738434 0.558197 0.000000
0.872559 0.544678 0.001007
0.950592 0.533630 0.000000
0.101318 0.690582 0.213745
0.160095 0.689880 0.198395
0.279205 0.688599 0.190887
0.408356 0.683380 0.173767
0.558136 0.691132 0.139008
0.710938 0.703644 0.060791
0.851410 0.707336 0.001984
0.951294 0.698639 0.000519
0.235077 0.817322 0.298950
0.295776 0.818024 0.289093
0.374908 0.816284 0.283325
0.467682 0.815796 0.268219
0.572754 0.816345 0.246246
0.701111 0.821503 0.216522
0.829132 0.827606 0.156769
0.951172 0.827545 0.019836
0.333099 0.923676 0.386444
0.393829 0.923676 0.380920
0.464172 0.922577 0.377563
0.540253 0.922333 0.369507
0.622498 0.923096 0.359283
0.714111 0.923859 0.340790
0.819550 0.927551 0.315765
0.929962 0.929382 0.258484
0.005646 0.001984 0.088654
0.080017 0.005646 0.084442
0.179321 0.005646 0.084442
0.361023 0.000000 0.083252
0.555328 0.000946 0.071869
0.723328 0.000275 0.066986
0.865845 0.001526 0.068085
0.946472 0.003540 0.110870
0.001709 0.084961 0.098755
0.069916 0.088898 0.098236
0.195831 0.090607 0.095062
0.377777 0.065704 0.082550
0.565613 0.066162 0.067627
0.730713 0.064514 0.065979
0.868958 0.065796 0.064514
0.951233 0.108521 0.093353
0.000000 0.218170 0.130981
0.067200 0.222351 0.124146
0.199249 0.231964 0.103424
0.408264 0.213989 0.071869
0.587555 0.174835 0.064514
0.740540 0.138336 0.064270
0.872559 0.166870 0.064270
0.951172 0.246185 0.068695
0.003418 0.382355 0.177490
0.064514 0.386810 0.171387
0.167084 0.383636 0.155884
0.393524 0.396912 0.106689
0.596375 0.387054 0.065704
0.750336 0.365479 0.064514
0.880249 0.364014 0.067108
0.951538 0.385681 0.064972
0.002502 0.541168 0.233673
0.075073 0.541168 0.227783
0.221558 0.542694 0.210754
0.386871 0.542450 0.184937
0.575165 0.555206 0.122070
0.736877 0.559662 0.065643
0.869965 0.547150 0.064270
0.951813 0.535919 0.066223
0.151947 0.689178 0.298767
0.211731 0.692535 0.290771
0.299835 0.690063 0.275970
0.420105 0.685944 0.258850
0.559723 0.693756 0.229980
0.713043 0.704620 0.173981
0.850006 0.709808 0.064514
0.950806 0.700165 0.064270
0.254303 0.817322 0.380066
0.315582 0.819275 0.372375
0.383728 0.819275 0.360504
0.476746 0.817566 0.345001
0.575470 0.815613 0.327026
0.700623 0.822205 0.297302
0.828308 0.827423 0.244995
0.951813 0.828857 0.153931
0.336792 0.925140 0.454834
0.402710 0.922150 0.452423
0.470032 0.923798 0.446503
0.540710 0.924805 0.441010
0.625854 0.921814 0.427917
0.717682 0.923096 0.416351
0.819855 0.926086 0.389130
0.931946 0.928375 0.339020
0.000000 0.008392 0.211273
0.064758 0.007874 0.211273
0.182281 0.007355 0.208344
0.369904 0.000000 0.204407
0.550629 0.000946 0.216156
0.719421 0.001465 0.210419
0.862091 0.002930 0.186035
0.951416 0.037262 0.160339
0.001465 0.100708 0.222107
0.064514 0.101471 0.225800
0.199768 0.101715 0.222107
0.381653 0.102417 0.221100
0.561951 0.099030 0.227234
0.726776 0.071381 0.209930
0.866577 0.077179 0.188141
0.951294 0.141113 0.139069
0.000000 0.228455 0.238831
0.064758 0.230225 0.244263
0.216248 0.241791 0.247192
0.403564 0.238892 0.236908
0.581116 0.231506 0.227997
0.736359 0.229828 0.213715
0.868103 0.243866 0.178406
0.950531 0.265656 0.129974
0.002655 0.387329 0.286133
0.084808 0.389526 0.282684
0.245819 0.397095 0.283203
0.411652 0.402039 0.257782
0.597382 0.393463 0.228821
0.746643 0.386566 0.199158
0.872253 0.393463 0.150726
0.951355 0.404663 0.130188
0.091827 0.546143 0.337830
0.185364 0.547333 0.339264
0.292084 0.549561 0.329071
0.410767 0.546814 0.307343
0.579529 0.558899 0.273285
0.739014 0.561188 0.232971
0.867401 0.553558 0.150421
0.949402 0.548309 0.128510
0.181610 0.693054 0.394897
0.262299 0.693115 0.396179
0.347473 0.695190 0.384369
0.440887 0.691772 0.366760
0.566498 0.693329 0.344543
0.714203 0.706329 0.306458
0.848602 0.711273 0.255890
0.951294 0.702271 0.141479
0.269043 0.819275 0.465973
0.340881 0.819794 0.465637
0.411285 0.819275 0.455109
0.488922 0.820038 0.441010
0.586121 0.817780 0.422577
0.702332 0.822968 0.402252
0.828033 0.827728 0.362061
0.947754 0.828094 0.303833
0.346954 0.924072 0.534851
0.417633 0.920746 0.535553
0.482391 0.922211 0.529449
0.552124 0.924805 0.518219
0.626190 0.924377 0.509125
0.719635 0.924316 0.497314
0.819458 0.925842 0.474274
0.933594 0.927795 0.436310
0.000000 0.022400 0.356018
0.065460 0.024200 0.358002
0.183563 0.023163 0.367126
0.387817 0.001221 0.363129
0.569000 0.000763 0.346710
0.724548 0.021027 0.354401
0.851532 0.130554 0.375702
0.951630 0.159851 0.360474
0.001984 0.125336 0.367310
0.065033 0.125092 0.366119
0.207123 0.131500 0.372559
0.399384 0.113586 0.370544
0.571777 0.119507 0.359772
0.721375 0.156708 0.365234
0.852295 0.217529 0.380829
0.951813 0.238220 0.364349
0.000000 0.244263 0.367584
0.066925 0.246765 0.371002
0.225342 0.257538 0.382355
0.414124 0.260773 0.382874
0.576874 0.275085 0.385040
0.719604 0.306549 0.392914
0.852234 0.318939 0.382812
0.950012 0.335632 0.364075
0.000763 0.390228 0.396912
0.077698 0.394958 0.396851
0.265991 0.400604 0.401093
0.427643 0.409485 0.406769
0.589630 0.414642 0.399841
0.732727 0.421051 0.393402
0.860626 0.434326 0.380707
0.951813 0.446381 0.360657
0.150055 0.551727 0.449585
0.232361 0.552979 0.455292
0.341064 0.554260 0.449829
0.451355 0.558441 0.443909
0.585693 0.565125 0.422058
0.734375 0.567078 0.399902
0.861816 0.563416 0.374298
0.950867 0.569794 0.348663
0.214233 0.696533 0.501526
0.293365 0.696289 0.500732
0.382568 0.697754 0.502289
0.478394 0.698517 0.493195
0.574646 0.698181 0.470581
0.713379 0.710510 0.447662
0.845245 0.711517 0.418579
0.951630 0.705048 0.371918
0.281982 0.818970 0.557129
0.350891 0.819275 0.552948
0.434021 0.821777 0.557983
0.515167 0.821564 0.549133
0.598511 0.820496 0.533325
0.705109 0.823212 0.515808
0.825195 0.830200 0.488434
0.944000 0.831848 0.450897
0.347595 0.923859 0.608521
0.417877 0.925079 0.613525
0.492950 0.925079 0.611115
0.563293 0.923035 0.605530
0.637146 0.923309 0.594025
0.720551 0.924561 0.584686
0.821899 0.926575 0.569092
0.928009 0.929779 0.539215
0.001007 0.054230 0.500336
0.065033 0.054718 0.501892
0.185333 0.060150 0.511200
0.411591 0.060425 0.524994
0.581116 0.009125 0.512146
0.730621 0.067200 0.501373
0.857208 0.133087 0.505371
0.951050 0.201996 0.514832
0.000275 0.150757 0.505249
0.064270 0.154449 0.508484
0.216064 0.160522 0.514618
0.423004 0.166748 0.529114
0.584564 0.147308 0.521820
0.731018 0.179840 0.509064
0.855743 0.228424 0.512238
0.950867 0.287476 0.526306
0.000000 0.270386 0.503326
0.066681 0.275787 0.511383
0.240906 0.278687 0.519073
0.430878 0.291595 0.533875
0.590393 0.290649 0.531342
0.730133 0.314270 0.524017
0.850281 0.349243 0.527863
0.949951 0.402771 0.547821
0.002716 0.397369 0.518036
0.073883 0.401794 0.516083
0.256134 0.406006 0.519501
0.431824 0.420288 0.536774
0.589447 0.436035 0.546631
0.721741 0.454285 0.543579
0.838959 0.481903 0.557220
0.949127 0.499359 0.553009
0.115417 0.547607 0.548615
0.210449 0.547791 0.547913
0.329010 0.552551 0.553070
0.457703 0.558441 0.557922
0.587921 0.570251 0.565308
0.720795 0.580109 0.561615
0.843842 0.588989 0.558014
0.950806 0.594849 0.542969
0.234680 0.699402 0.606110
0.312531 0.699890 0.608917
0.407745 0.702393 0.611389
0.502228 0.704102 0.606384
0.596283 0.707001 0.601501
0.711975 0.713501 0.584625
0.838196 0.712799 0.565063
0.951813 0.708221 0.537170
0.296417 0.823730 0.651886
0.366760 0.822021 0.651825
0.443176 0.824677 0.651947
0.532318 0.824432 0.652649
0.618378 0.822723 0.643524
0.705292 0.823730 0.628357
0.820099 0.830139 0.608734
0.937897 0.831848 0.589325
0.345886 0.923676 0.686066
0.414398 0.926392 0.686646
0.490967 0.925323 0.686646
0.570770 0.925079 0.689758
0.648224 0.924805 0.681946
0.727783 0.923859 0.676605
0.820099 0.927551 0.664917
0.924896 0.929688 0.644592
0.000000 0.095062 0.643341
0.065216 0.099060 0.645813
0.225464 0.102936 0.654755
0.428223 0.113007 0.667267
0.607666 0.128143 0.685059
0.739777 0.114502 0.671448
0.857391 0.164398 0.653809
0.949829 0.225098 0.652985
0.001007 0.188416 0.648590
0.065277 0.188904 0.650940
0.245605 0.195496 0.657623
0.433289 0.203888 0.667511
0.606140 0.223328 0.684509
0.737885 0.212402 0.673431
0.854980 0.255981 0.658691
0.950806 0.308868 0.660278
0.000000 0.307007 0.646454
0.102600 0.305298 0.648010
0.266510 0.305817 0.656158
0.441040 0.317688 0.670776
0.606842 0.342072 0.688934
0.733887 0.338379 0.679321
0.848358 0.369934 0.666382
0.950012 0.412231 0.671204
0.001526 0.410797 0.637756
0.106323 0.417816 0.640869
0.290314 0.428375 0.655396
0.437988 0.437988 0.669922
0.597748 0.464874 0.688690
0.727661 0.471802 0.687897
0.839417 0.494202 0.678833
0.940125 0.525909 0.686127
0.098389 0.552551 0.664551
0.191986 0.551544 0.664093
0.307953 0.553253 0.663605
0.433502 0.554443 0.663300
0.584900 0.578766 0.685364
0.718140 0.598846 0.697998
0.827148 0.614014 0.698700
0.929382 0.634705 0.708282
0.202515 0.689880 0.694519
0.280487 0.690308 0.697937
0.373505 0.693817 0.695007
0.482513 0.696411 0.698639
0.596710 0.702393 0.704102
0.712921 0.715454 0.710266
0.825897 0.722748 0.709991
0.934204 0.728668 0.706116
0.296661 0.822266 0.736053
0.368561 0.821503 0.738831
0.452240 0.823273 0.740814
0.543304 0.827423 0.743469
0.633087 0.828094 0.743073
0.718872 0.830414 0.737183
0.818451 0.832855 0.723267
0.931610 0.831604 0.710754
0.364044 0.927032 0.771729
0.431854 0.924561 0.770325
0.502350 0.926025 0.772858
0.575226 0.925262 0.769928
0.657043 0.925964 0.770386
0.743347 0.927795 0.769043
0.819092 0.926605 0.757446
0.922394 0.929962 0.747711
0.000031 0.153290 0.790405
0.131134 0.155060 0.788116
0.300293 0.159637 0.794708
0.460541 0.170563 0.802216
0.610596 0.190247 0.810455
0.749878 0.219788 0.822083
0.859528 0.210358 0.807037
0.951630 0.256409 0.791290
0.015015 0.235962 0.788879
0.157562 0.236908 0.789185
0.308411 0.244080 0.796661
0.462219 0.253418 0.800354
0.612305 0.275848 0.811096
0.746643 0.304932 0.819550
0.859100 0.297882 0.810272
0.949646 0.337433 0.793121
0.091309 0.341827 0.784363
0.179688 0.338562 0.790009
0.315704 0.344818 0.791290
0.465118 0.358521 0.801300
0.609131 0.377258 0.811462
0.741425 0.413055 0.821320
0.850281 0.405365 0.811859
0.944183 0.436676 0.798279
0.106384 0.450958 0.782074
0.206238 0.455719 0.784851
0.333496 0.462585 0.790771
0.457947 0.465363 0.799469
0.603790 0.488739 0.808929
0.735321 0.523407 0.822021
0.842590 0.521271 0.815338
0.937500 0.541656 0.803711
0.083344 0.562439 0.776917
0.173706 0.560242 0.777313
0.289703 0.558441 0.780945
0.441925 0.570312 0.788116
0.585999 0.590912 0.803528
0.721039 0.625610 0.818512
0.831482 0.632782 0.817780
0.929260 0.646515 0.814667
0.183502 0.693817 0.801880
0.262573 0.694763 0.800049
0.350647 0.695251 0.799408
0.453766 0.695251 0.798218
0.564789 0.694244 0.796936
0.703522 0.716858 0.813110
0.823486 0.737610 0.821960
0.921204 0.748352 0.823486
0.271851 0.814453 0.817780
0.342010 0.816864 0.820801
0.423492 0.815857 0.820740
0.511536 0.820038 0.823669
0.609619 0.822723 0.820740
0.716034 0.826202 0.827148
0.821716 0.832611 0.829132
0.923920 0.837250 0.832672
0.348602 0.925385 0.846008
0.419800 0.925323 0.847351
0.494843 0.926086 0.849274
0.579498 0.925507 0.850708
0.666138 0.927063 0.851593
0.750397 0.930267 0.853271
0.827667 0.931305 0.848419
0.920807 0.931732 0.839661
0.208923 0.233307 0.915985
0.289490 0.235321 0.915863
0.392487 0.243073 0.917084
0.511230 0.255341 0.915924
0.632782 0.269348 0.919800
0.750122 0.299347 0.925140
0.857056 0.319916 0.923615
0.950012 0.313812 0.921692
0.212158 0.313385 0.915100
0.293823 0.315277 0.913635
0.396545 0.319580 0.916443
0.513000 0.329437 0.920380
0.631073 0.347260 0.920563
0.748688 0.374390 0.926910
0.855103 0.395996 0.925140
0.951630 0.389893 0.917969
0.213867 0.402191 0.912048
0.295258 0.405243 0.915436
0.396606 0.409485 0.914520
0.510468 0.420502 0.914337
0.630371 0.439423 0.917267
0.744415 0.463684 0.921387
0.850708 0.484375 0.925079
0.948883 0.477692 0.920135
0.233246 0.513275 0.910706
0.312103 0.513641 0.908569
0.397125 0.511047 0.911926
0.506165 0.516693 0.915375
0.624146 0.532379 0.916626
0.738831 0.556763 0.919739
0.844360 0.580383 0.923615
0.941772 0.572876 0.919098
0.185028 0.602814 0.903992
0.265228 0.605103 0.906708
0.370636 0.607452 0.907684
0.494965 0.616516 0.911041
0.608917 0.623901 0.913391
0.728912 0.646057 0.920502
0.838959 0.671661 0.924683
0.933624 0.668152 0.920959
0.208374 0.717743 0.910858
0.280212 0.717682 0.906158
0.359161 0.714813 0.906219
0.449432 0.710815 0.907501
0.575562 0.713745 0.906403
0.708740 0.729004 0.915375
0.829376 0.757812 0.928497
0.927246 0.759918 0.924805
0.279602 0.827606 0.916199
0.346771 0.829132 0.917572
0.425140 0.829132 0.916199
0.507050 0.827209 0.915741
0.591278 0.824432 0.916321
0.685364 0.821259 0.910767
0.815613 0.835297 0.918030
0.923615 0.849518 0.927551
0.343536 0.922272 0.925842
0.411926 0.923676 0.927368
0.484253 0.925140 0.929077
0.560333 0.923859 0.926270
0.645294 0.926575 0.923676
0.735779 0.925323 0.929260
0.823669 0.927795 0.925964
0.922089 0.929962 0.928375
