Klick/Luts/Golden Light.cube
#Created by: Adobe Photoshop Export Color Lookup Plugin
#Copyright: (C) Copyright 2024 Tim Martin and Presetpro.com
TITLE "Presetpro - Golden Light .jpg"
#LUT size
LUT_3D_SIZE 32
#data domain
DOMAIN_MIN 0.0 0.0 0.0
DOMAIN_MAX 1.0 1.0 1.0
#LUT data points
0.000000 0.000000 0.000000
0.018219 0.000000 0.000000
0.044067 0.000122 0.000122
0.065918 0.001984 0.001984
0.082489 0.000275 0.000519
0.101990 0.005280 0.005585
0.122742 0.002716 0.006653
0.146362 0.005463 0.005920
0.175842 0.001984 0.005402
0.213531 0.001404 0.007294
0.255615 0.000641 0.007172
0.304901 0.001282 0.009705
0.353607 0.000763 0.011810
0.399323 0.001160 0.010162
0.452484 0.000000 0.010040
0.502502 0.000946 0.008820
0.548676 0.000000 0.006866
0.592804 0.000000 0.007874
0.634644 0.000000 0.007874
0.677887 0.000763 0.005920
0.721375 0.001282 0.005920
0.758759 0.000000 0.008575
0.794067 0.000000 0.012390
0.825623 0.001465 0.012756
0.859741 0.001526 0.018799
0.896179 0.000397 0.028381
0.917694 0.000000 0.036438
0.935730 0.000000 0.046722
0.950012 0.000183 0.057098
0.967499 0.031555 0.073792
0.976318 0.085907 0.082672
1.000000 0.116150 0.104340
0.001984 0.018036 0.001984
0.022095 0.019928 0.000000
0.044189 0.016235 0.000061
0.065979 0.018097 0.001770
0.085999 0.018097 0.000061
0.102417 0.018402 0.000336
0.125031 0.020325 0.004211
0.154236 0.021667 0.005981
0.178986 0.021088 0.004578
0.220215 0.017517 0.010284
0.261719 0.016052 0.007294
0.311432 0.016693 0.008636
0.355896 0.016052 0.009277
0.405212 0.016907 0.007874
0.453674 0.017151 0.008881
0.503387 0.016052 0.008759
0.549622 0.017975 0.004944
0.595551 0.016968 0.008636
0.634766 0.017151 0.004944
0.678009 0.016846 0.005920
0.721436 0.017273 0.004456
0.758820 0.016052 0.005920
0.794128 0.017975 0.004517
0.826721 0.017456 0.008698
0.861633 0.017517 0.014740
0.895782 0.017670 0.020905
0.917694 0.016388 0.030853
0.935730 0.016327 0.042786
0.951630 0.016113 0.059937
0.967499 0.057098 0.070160
0.983948 0.105988 0.086090
1.000000 0.138245 0.096375
0.002228 0.038055 0.000397
0.022156 0.037964 0.002289
0.044189 0.036316 0.000397
0.064056 0.038116 0.000397
0.080780 0.038055 0.000122
0.102753 0.038544 0.000336
0.127075 0.040009 0.004059
0.153107 0.041534 0.003662
0.184479 0.040009 0.001404
0.221527 0.033661 0.009033
0.263672 0.033600 0.002716
0.314423 0.032684 0.005646
0.360413 0.034668 0.008972
0.409851 0.032135 0.006714
0.458679 0.032257 0.006042
0.505493 0.033295 0.007538
0.552734 0.032135 0.004883
0.597809 0.032135 0.002777
0.639862 0.033295 0.003113
0.682068 0.033661 0.002838
0.720367 0.034119 0.000000
0.758759 0.033478 0.001831
0.796051 0.032257 0.004272
0.830200 0.032257 0.002350
0.860565 0.032257 0.008209
0.896057 0.032257 0.016327
0.917694 0.032562 0.029968
0.935486 0.033844 0.039093
0.949890 0.032501 0.051056
0.967743 0.083496 0.070099
0.980377 0.124451 0.080200
1.000000 0.156158 0.102112
0.003937 0.056458 0.006287
0.023926 0.056458 0.007935
0.043945 0.058228 0.006104
0.060181 0.058228 0.005707
0.080078 0.058472 0.000458
0.102417 0.060577 0.000000
0.129028 0.058990 0.000183
0.160522 0.061737 0.000000
0.190674 0.058105 0.000702
0.230865 0.054749 0.004761
0.274109 0.049530 0.005707
0.319244 0.048370 0.002472
0.365967 0.049591 0.005707
0.415070 0.048187 0.004395
0.463409 0.049072 0.003357
0.509247 0.051758 0.003540
0.555603 0.048187 0.001007
0.600677 0.048370 0.000000
0.641571 0.049194 0.000000
0.683990 0.049988 0.002411
0.724243 0.049988 0.000702
0.761200 0.049011 0.000000
0.797455 0.049133 0.001587
0.832031 0.050171 0.000519
0.864563 0.048187 0.002655
0.895599 0.048187 0.008514
0.919281 0.048370 0.018036
0.933777 0.048462 0.035583
0.946472 0.055511 0.044891
0.967865 0.109802 0.069519
0.983765 0.146667 0.072968
1.000000 0.176514 0.096069
0.005402 0.078796 0.012085
0.021729 0.079071 0.011810
0.038300 0.080505 0.008392
0.059509 0.080780 0.009583
0.077789 0.084717 0.006409
0.102356 0.086609 0.005768
0.127686 0.086670 0.000519
0.161865 0.085205 0.001709
0.199005 0.084198 0.000000
0.241272 0.077393 0.000336
0.282990 0.070099 0.000275
0.329285 0.064697 0.000000
0.376526 0.064270 0.001007
0.421234 0.064270 0.000000
0.470428 0.064880 0.002350
0.514893 0.065979 0.000000
0.561188 0.066162 0.001282
0.604675 0.064514 0.001984
0.646698 0.065338 0.001068
0.687714 0.064270 0.001923
0.724548 0.065216 0.002716
0.763397 0.064514 0.000000
0.799072 0.064270 0.001404
0.833313 0.065460 0.000519
0.867615 0.064514 0.000275
0.899872 0.064270 0.000275
0.919678 0.064819 0.010345
0.933777 0.065704 0.022858
0.950073 0.085327 0.039642
0.966278 0.138428 0.059753
0.983673 0.170563 0.070465
1.000000 0.198120 0.084900
0.000000 0.105225 0.015747
0.017731 0.108276 0.013977
0.035736 0.107178 0.013794
0.051697 0.107056 0.010040
0.068146 0.109222 0.008209
0.092133 0.112457 0.009521
0.124786 0.113220 0.005829
0.161926 0.117340 0.003357
0.203461 0.112457 0.000397
0.248444 0.108063 0.000000
0.293335 0.101013 0.000336
0.335754 0.086731 0.000397
0.384521 0.080780 0.000458
0.430115 0.081146 0.000000
0.476166 0.080902 0.000580
0.519531 0.080963 0.000000
0.567657 0.081604 0.000336
0.610077 0.080322 0.000763
0.651550 0.081146 0.000336
0.692413 0.080322 0.000000
0.727966 0.081604 0.000702
0.765930 0.081604 0.000000
0.802277 0.080658 0.000000
0.835663 0.081970 0.001160
0.869690 0.080658 0.001526
0.900482 0.080322 0.000397
0.917694 0.080322 0.000000
0.935486 0.082031 0.006409
0.951813 0.122803 0.027618
0.964569 0.168091 0.047821
0.980316 0.198181 0.068207
0.999359 0.219055 0.078735
0.000000 0.138031 0.021667
0.016113 0.137970 0.018463
0.032379 0.137543 0.017578
0.048187 0.137268 0.015747
0.064758 0.137787 0.015625
0.083496 0.143524 0.011414
0.110931 0.147125 0.005524
0.156830 0.150299 0.003113
0.204407 0.151825 0.000122
0.249512 0.144318 0.000000
0.299561 0.139130 0.002228
0.347321 0.129852 0.001282
0.396912 0.111328 0.000397
0.438171 0.099457 0.000458
0.484344 0.096893 0.001099
0.531464 0.096771 0.000580
0.572296 0.097351 0.000000
0.616241 0.096405 0.002289
0.658264 0.096405 0.003174
0.696350 0.096405 0.000000
0.732300 0.097107 0.000885
0.769623 0.097412 0.001007
0.803711 0.097412 0.000000
0.838318 0.096405 0.000397
0.870911 0.096405 0.002411
0.900879 0.096771 0.003174
0.917633 0.096710 0.000336
0.935242 0.112762 0.002655
0.950409 0.161926 0.008759
0.967743 0.197296 0.033417
0.982025 0.224579 0.053986
0.996826 0.245178 0.071686
0.001526 0.173737 0.024078
0.017609 0.173737 0.023163
0.033661 0.173737 0.020142
0.049744 0.174164 0.019684
0.066040 0.174408 0.020142
0.084259 0.177551 0.015564
0.096405 0.183075 0.009033
0.142242 0.184021 0.003937
0.197968 0.187958 0.000000
0.251953 0.185974 0.000000
0.299561 0.183655 0.001343
0.349854 0.174805 0.000000
0.398865 0.165649 0.000336
0.447083 0.149780 0.000397
0.495331 0.127563 0.001984
0.538361 0.113800 0.001526
0.578003 0.113983 0.000458
0.621063 0.112457 0.000458
0.660797 0.113739 0.001282
0.700745 0.113220 0.001221
0.735199 0.112457 0.000885
0.773895 0.112457 0.000458
0.808258 0.112915 0.002930
0.840881 0.112457 0.001465
0.870453 0.112915 0.001526
0.901337 0.113281 0.003479
0.918152 0.128143 0.000641
0.935730 0.169678 0.000000
0.951355 0.198364 0.000000
0.967865 0.226746 0.011444
0.980438 0.249298 0.042175
0.998016 0.272797 0.057526
0.000519 0.213745 0.031036
0.016571 0.214233 0.028564
0.032135 0.213867 0.027832
0.048187 0.212769 0.022675
0.065979 0.212769 0.026276
0.080322 0.215698 0.018860
0.096527 0.219910 0.011932
0.120972 0.220642 0.003876
0.183258 0.226044 0.000000
0.246338 0.228027 0.000000
0.297394 0.226044 0.000000
0.353149 0.221741 0.002716
0.401611 0.212982 0.000000
0.453796 0.203461 0.000000
0.501801 0.191589 0.001770
0.544403 0.175049 0.000000
0.586517 0.157135 0.000000
0.627594 0.140381 0.001160
0.667969 0.132080 0.000519
0.700623 0.129242 0.000702
0.737366 0.129974 0.002106
0.775024 0.129791 0.000824
0.806396 0.129028 0.001068
0.840942 0.130554 0.003876
0.872437 0.138153 0.001007
0.899933 0.160278 0.001831
0.919342 0.190216 0.000000
0.935730 0.213470 0.002411
0.950012 0.235657 0.000000
0.963104 0.259949 0.001007
0.983948 0.280212 0.014069
0.996582 0.299835 0.048645
0.000000 0.254303 0.041656
0.016052 0.254364 0.037598
0.032135 0.253052 0.034729
0.048187 0.254303 0.031433
0.064819 0.253723 0.030670
0.082367 0.253479 0.027222
0.099762 0.256104 0.021088
0.112457 0.260651 0.011169
0.166870 0.264038 0.001007
0.230408 0.268097 0.000000
0.297668 0.268585 0.004700
0.356201 0.267273 0.002533
0.406555 0.260040 0.000000
0.455078 0.255829 0.002869
0.503326 0.244904 0.003296
0.549347 0.235840 0.000000
0.591919 0.222229 0.002838
0.632568 0.212555 0.001129
0.671478 0.206787 0.000000
0.708801 0.197388 0.000641
0.743134 0.191223 0.001404
0.777740 0.188568 0.004578
0.811798 0.191345 0.002808
0.846954 0.196838 0.002228
0.874908 0.210785 0.000000
0.902466 0.223999 0.000580
0.917450 0.241486 0.000000
0.934906 0.253540 0.004272
0.951630 0.274719 0.002411
0.967163 0.290192 0.002808
0.983948 0.307281 0.000000
1.000000 0.326843 0.020477
0.001343 0.295013 0.049774
0.016052 0.296326 0.048523
0.032135 0.296448 0.045715
0.048187 0.295624 0.042542
0.064636 0.296082 0.042358
0.080322 0.296326 0.036713
0.096405 0.296326 0.029724
0.112915 0.300079 0.020691
0.137085 0.302734 0.010864
0.216248 0.307434 0.000122
0.285156 0.312073 0.000641
0.346497 0.312134 0.000641
0.407837 0.311066 0.002411
0.454224 0.303833 0.000641
0.504272 0.296906 0.000000
0.550690 0.288788 0.001984
0.593933 0.280060 0.000641
0.635040 0.273254 0.000000
0.675476 0.264252 0.000000
0.714111 0.259613 0.000000
0.748932 0.254211 0.000000
0.781067 0.255554 0.001282
0.811737 0.255554 0.000641
0.846344 0.258972 0.001465
0.875214 0.265411 0.000000
0.901947 0.271637 0.001282
0.918396 0.283264 0.000000
0.935486 0.294678 0.003601
0.949188 0.309875 0.001160
0.967255 0.323639 0.000275
0.982025 0.338776 0.001282
1.000000 0.352783 0.000641
0.000000 0.337799 0.062531
0.017334 0.338989 0.063690
0.032135 0.338348 0.059875
0.048187 0.337097 0.054657
0.064697 0.338104 0.054291
0.081909 0.337982 0.050232
0.097992 0.335815 0.046021
0.114166 0.337799 0.039764
0.131042 0.343689 0.025787
0.206024 0.342865 0.009216
0.270111 0.348785 0.000000
0.341034 0.352142 0.001984
0.399078 0.354095 0.000702
0.455719 0.354675 0.001984
0.504913 0.345123 0.000000
0.552734 0.338135 0.000702
0.593506 0.333282 0.001282
0.637573 0.328461 0.000702
0.677612 0.319763 0.002655
0.713837 0.314178 0.000000
0.751007 0.308960 0.000702
0.781677 0.308258 0.000000
0.813873 0.307678 0.000000
0.846191 0.310242 0.000702
0.877380 0.313019 0.001129
0.900879 0.318604 0.000000
0.918274 0.326599 0.001587
0.935730 0.333252 0.002106
0.949524 0.344788 0.000000
0.963745 0.356415 0.000000
0.983826 0.370178 0.000000
1.000000 0.383545 0.004517
0.000000 0.380402 0.079803
0.016052 0.380402 0.077850
0.033356 0.377991 0.076385
0.049408 0.379181 0.072693
0.064758 0.379639 0.066467
0.081665 0.380096 0.064514
0.098816 0.380768 0.065277
0.113220 0.378876 0.056183
0.131561 0.381805 0.052704
0.193817 0.383331 0.032776
0.265900 0.386566 0.011475
0.326599 0.388214 0.000122
0.385406 0.393402 0.003174
0.446625 0.398102 0.001160
0.503021 0.395569 0.000763
0.552338 0.388641 0.000000
0.596039 0.384064 0.002167
0.635590 0.378540 0.002533
0.676422 0.372528 0.000763
0.714508 0.368469 0.000763
0.750305 0.364471 0.001465
0.786316 0.361023 0.000000
0.818451 0.357544 0.000763
0.848358 0.356140 0.000763
0.875916 0.359497 0.001221
0.903229 0.362732 0.000000
0.917267 0.368286 0.001984
0.935730 0.374756 0.000000
0.950592 0.381805 0.000397
0.967102 0.391083 0.000000
0.982788 0.401123 0.000061
0.998779 0.413574 0.000763
0.000000 0.421600 0.093842
0.016907 0.421600 0.091431
0.032959 0.421600 0.089905
0.050171 0.420471 0.085968
0.064270 0.421600 0.085144
0.080322 0.421295 0.081909
0.097656 0.420105 0.078979
0.113617 0.418060 0.068573
0.129547 0.419647 0.067047
0.191406 0.423889 0.056458
0.261078 0.426361 0.043762
0.322357 0.428223 0.017395
0.379761 0.431061 0.002350
0.435089 0.434235 0.001648
0.495209 0.435211 0.001282
0.549988 0.437866 0.000275
0.593048 0.434052 0.000946
0.635681 0.428894 0.000885
0.674011 0.423767 0.000641
0.710083 0.419312 0.000763
0.747986 0.415375 0.000824
0.783020 0.411774 0.000824
0.815735 0.409149 0.000000
0.848114 0.404907 0.003357
0.878723 0.403839 0.002533
0.902466 0.404297 0.001160
0.918854 0.408356 0.000000
0.935730 0.412354 0.001709
0.951416 0.417358 0.000824
0.967865 0.426880 0.000000
0.983887 0.435669 0.000000
0.999176 0.445251 0.002289
0.000885 0.462677 0.110931
0.016968 0.461609 0.108063
0.034119 0.460663 0.105652
0.050171 0.461426 0.101990
0.064880 0.463318 0.098480
0.082031 0.461609 0.097473
0.098877 0.459473 0.096191
0.113342 0.460541 0.088196
0.133087 0.459534 0.088074
0.202972 0.457672 0.075806
0.263489 0.461670 0.069092
0.321838 0.467346 0.051361
0.375885 0.470123 0.026703
0.429657 0.473358 0.000336
0.484161 0.473236 0.000000
0.536621 0.478180 0.000000
0.590210 0.479218 0.000000
0.633759 0.477844 0.000000
0.672882 0.471893 0.001099
0.709259 0.466125 0.000000
0.746368 0.465668 0.000397
0.779724 0.461426 0.001282
0.814972 0.457855 0.000885
0.844879 0.454437 0.000580
0.877441 0.452026 0.000641
0.902710 0.449280 0.000000
0.918793 0.450043 0.000000
0.934906 0.452423 0.000000
0.951630 0.455902 0.001770
0.966858 0.462311 0.000946
0.982788 0.469635 0.000885
1.000000 0.477386 0.000000
0.001007 0.501617 0.126862
0.017090 0.502563 0.124939
0.032135 0.501556 0.121918
0.050110 0.500610 0.116943
0.065918 0.502380 0.117065
0.081268 0.500610 0.111755
0.097351 0.500610 0.110107
0.113861 0.501617 0.106171
0.143616 0.500610 0.102356
0.215210 0.500214 0.096710
0.269257 0.501862 0.089722
0.318939 0.503082 0.073517
0.375824 0.504791 0.062653
0.423065 0.509369 0.035370
0.476105 0.510376 0.004333
0.528168 0.515411 0.001007
0.582214 0.515564 0.000946
0.628052 0.523224 0.000000
0.668945 0.518951 0.001160
0.705780 0.516083 0.000000
0.742767 0.512360 0.000946
0.777496 0.507477 0.000000
0.810822 0.504211 0.001007
0.843842 0.501556 0.001526
0.873840 0.499512 0.000458
0.902466 0.495667 0.000000
0.919678 0.495667 0.000702
0.934021 0.492981 0.000275
0.951813 0.494690 0.001984
0.966858 0.497681 0.000000
0.983887 0.502594 0.001892
0.998993 0.509521 0.001007
0.000000 0.539734 0.140839
0.016052 0.540680 0.136902
0.032135 0.539734 0.135956
0.051178 0.538757 0.132019
0.067688 0.540924 0.131073
0.081604 0.539398 0.129150
0.098999 0.536163 0.125763
0.117737 0.539215 0.123138
0.174255 0.537323 0.115845
0.233978 0.536804 0.115509
0.277435 0.538696 0.107086
0.328033 0.539459 0.096924
0.372437 0.542694 0.082184
0.426056 0.544678 0.073608
0.473114 0.546509 0.050293
0.520294 0.550629 0.014557
0.566315 0.554504 0.000000
0.615540 0.560547 0.000000
0.664337 0.561554 0.001221
0.701416 0.560425 0.000946
0.738434 0.558197 0.000000
0.774139 0.553253 0.000641
0.808228 0.551208 0.000946
0.838379 0.548157 0.000000
0.872559 0.544678 0.001007
0.899536 0.542694 0.000580
0.918732 0.541138 0.000336
0.935730 0.535797 0.001007
0.950592 0.533630 0.000000
0.964935 0.536499 0.000122
0.983887 0.539642 0.001007
1.000000 0.545685 0.000000
0.000000 0.578827 0.156982
0.016052 0.578827 0.155884
0.033905 0.578827 0.153870
0.049988 0.578827 0.151947
0.065155 0.576874 0.143890
0.081970 0.577942 0.145050
0.099457 0.577759 0.141602
0.148682 0.577759 0.141418
0.206696 0.575287 0.136230
0.251465 0.575317 0.130707
0.296112 0.574951 0.129303
0.335144 0.573944 0.116547
0.380707 0.577423 0.108795
0.427124 0.581665 0.100281
0.473053 0.585236 0.082581
0.514648 0.586639 0.064301
0.558563 0.590576 0.030426
0.607483 0.595490 0.000000
0.655060 0.596436 0.000000
0.698364 0.601257 0.000885
0.734772 0.600494 0.000183
0.769318 0.598267 0.000000
0.802826 0.595154 0.002594
0.833832 0.592102 0.000000
0.866150 0.588867 0.001526
0.894287 0.586212 0.000000
0.917389 0.584381 0.001648
0.935486 0.582123 0.000000
0.949127 0.578827 0.002045
0.965698 0.576233 0.001099
0.982971 0.573761 0.000000
1.000000 0.577576 0.001099
0.000031 0.616608 0.172729
0.016083 0.616608 0.172729
0.032135 0.616119 0.169922
0.048218 0.616943 0.168274
0.064545 0.616119 0.166229
0.090912 0.615265 0.160095
0.138733 0.616913 0.158142
0.192352 0.616119 0.155029
0.229919 0.615906 0.152344
0.270447 0.615448 0.148041
0.308594 0.615143 0.144928
0.350708 0.611023 0.137756
0.386566 0.612610 0.131714
0.429474 0.617432 0.122192
0.471283 0.617767 0.110779
0.515533 0.620667 0.094910
0.559296 0.625641 0.078491
0.601257 0.629547 0.047302
0.643311 0.629578 0.007385
0.688660 0.637421 0.000061
0.729828 0.639374 0.000000
0.762695 0.639374 0.000000
0.800232 0.637177 0.001160
0.830444 0.633179 0.000824
0.861450 0.629517 0.000824
0.895355 0.628754 0.001160
0.918549 0.625427 0.001465
0.934601 0.625671 0.001709
0.951813 0.621826 0.000000
0.967865 0.617188 0.002289
0.983948 0.615356 0.000763
0.998016 0.613831 0.000000
0.038849 0.654572 0.193054
0.053955 0.653809 0.189789
0.064209 0.653931 0.187134
0.077240 0.653839 0.182465
0.107666 0.654266 0.181030
0.148804 0.653931 0.183838
0.184357 0.653046 0.180542
0.223969 0.651855 0.173370
0.256592 0.650909 0.170959
0.291992 0.651184 0.167969
0.329193 0.650635 0.163849
0.364685 0.649200 0.160278
0.397369 0.649567 0.151398
0.436310 0.650696 0.146515
0.476715 0.653931 0.135712
0.515137 0.657501 0.125885
0.556122 0.659271 0.109802
0.598389 0.664154 0.096832
0.639374 0.663605 0.069458
0.678619 0.670319 0.035400
0.722137 0.670380 0.000122
0.757111 0.674255 0.001526
0.792877 0.673859 0.000580
0.825439 0.673248 0.000000
0.857452 0.669556 0.000000
0.886353 0.667603 0.000000
0.917511 0.666412 0.001221
0.935730 0.661713 0.000000
0.949463 0.659332 0.000397
0.966644 0.658325 0.000000
0.983948 0.654327 0.001892
1.000000 0.653809 0.000000
0.101318 0.690582 0.213745
0.113892 0.690582 0.207855
0.126831 0.689880 0.207123
0.142212 0.691833 0.203217
0.160095 0.689880 0.198395
0.188934 0.690582 0.200348
0.218323 0.688599 0.196930
0.249939 0.689056 0.193817
0.279205 0.688599 0.190887
0.312561 0.685944 0.186768
0.342194 0.685303 0.184875
0.376099 0.685944 0.176239
0.408356 0.683380 0.173767
0.443481 0.685944 0.166595
0.480316 0.687531 0.165497
0.516663 0.691833 0.150208
0.558136 0.691132 0.139008
0.594696 0.695190 0.124634
0.634186 0.699463 0.110626
0.672363 0.701630 0.092133
0.710938 0.703644 0.060791
0.749054 0.707062 0.006378
0.787720 0.709564 0.001404
0.824890 0.708984 0.003815
0.851410 0.707336 0.001984
0.884186 0.705566 0.001984
0.910583 0.705322 0.000000
0.935730 0.701691 0.001282
0.951294 0.698639 0.000519
0.967865 0.695892 0.002533
0.983948 0.691833 0.001343
0.998718 0.690582 0.000702
0.137390 0.723267 0.227142
0.154724 0.724548 0.228424
0.166199 0.723969 0.226379
0.181641 0.725250 0.224548
0.197388 0.725250 0.220276
0.225098 0.723267 0.219513
0.246277 0.723022 0.218872
0.277130 0.722015 0.212921
0.303528 0.723022 0.214630
0.330017 0.722839 0.204376
0.358765 0.721954 0.202820
0.391418 0.721252 0.198151
0.420288 0.720032 0.197601
0.451660 0.720032 0.189453
0.485687 0.719574 0.181244
0.522003 0.723328 0.173767
0.558075 0.725311 0.165802
0.595215 0.727661 0.153564
0.631958 0.729187 0.145538
0.665833 0.732361 0.128510
0.705566 0.736298 0.111877
0.744293 0.739075 0.086090
0.779846 0.740417 0.040161
0.813049 0.743134 0.000275
0.850586 0.742310 0.000000
0.878723 0.739258 0.000000
0.909180 0.738708 0.000641
0.932556 0.737762 0.000000
0.950012 0.734009 0.000000
0.967865 0.730011 0.000000
0.982025 0.729889 0.000580
1.000000 0.722626 0.000000
0.172607 0.758636 0.251099
0.188660 0.758636 0.249664
0.202789 0.759460 0.248535
0.218842 0.759460 0.248169
0.231812 0.756653 0.239624
0.253571 0.756409 0.238739
0.277435 0.756226 0.239716
0.301239 0.756165 0.237122
0.328430 0.755585 0.228485
0.352356 0.756104 0.235260
0.379272 0.755920 0.228058
0.405579 0.755402 0.221832
0.433502 0.753387 0.216370
0.466583 0.753326 0.215637
0.495544 0.752167 0.206573
0.525574 0.754822 0.200378
0.560242 0.756287 0.192780
0.595490 0.759735 0.186737
0.631500 0.761749 0.171387
0.664215 0.763153 0.160278
0.702698 0.765808 0.148773
0.737549 0.767853 0.128845
0.775787 0.769897 0.108521
0.807587 0.769745 0.076599
0.841522 0.772675 0.025299
0.873718 0.774384 0.000031
0.905762 0.772736 0.001404
0.934418 0.769379 0.000000
0.951813 0.767273 0.000763
0.967865 0.764923 0.004883
0.983948 0.762024 0.000000
0.998596 0.760590 0.000000
0.205109 0.787781 0.274506
0.220673 0.788727 0.271088
0.232788 0.788849 0.269928
0.248840 0.790192 0.268616
0.266632 0.791901 0.269287
0.281006 0.789459 0.262695
0.308746 0.787659 0.261627
0.324921 0.789703 0.258759
0.349945 0.789185 0.256805
0.373260 0.788544 0.254639
0.396790 0.787598 0.253693
0.426788 0.785309 0.246063
0.450897 0.786530 0.243469
0.477814 0.785950 0.239075
0.506073 0.783722 0.232300
0.537079 0.786774 0.224884
0.565369 0.788300 0.220398
0.598328 0.788727 0.208771
0.633820 0.790192 0.204163
0.668091 0.792938 0.194305
0.700806 0.794464 0.181427
0.733002 0.796997 0.168396
0.767090 0.797638 0.150299
0.802063 0.797638 0.134705
0.834076 0.800598 0.106750
0.871216 0.801575 0.068970
0.902649 0.801392 0.023193
0.929321 0.801056 0.000275
0.951813 0.799103 0.000000
0.966400 0.796875 0.000000
0.980560 0.794708 0.002045
0.999481 0.793182 0.001465
0.235077 0.817322 0.298950
0.249603 0.818848 0.295013
0.264679 0.819397 0.295013
0.277802 0.819275 0.292603
0.295776 0.818024 0.289093
0.312683 0.818970 0.287598
0.330322 0.818146 0.287079
0.350647 0.820374 0.285156
0.374908 0.816284 0.283325
0.398010 0.817322 0.277832
0.421692 0.816864 0.275970
0.444427 0.817505 0.271973
0.467682 0.815796 0.268219
0.493317 0.817322 0.264496
0.519287 0.816864 0.256683
0.544708 0.816803 0.250885
0.572754 0.816345 0.246246
0.604858 0.818390 0.241852
0.638184 0.818024 0.235840
0.667786 0.819275 0.227081
0.701111 0.821503 0.216522
0.732941 0.823029 0.204590
0.763031 0.825500 0.188354
0.794067 0.828094 0.176605
0.829132 0.827606 0.156769
0.864288 0.829132 0.132263
0.897186 0.829590 0.102844
0.923859 0.828308 0.065857
0.951172 0.827545 0.019836
0.967865 0.826721 0.000336
0.983551 0.823273 0.001526
1.000000 0.822327 0.000458
0.261475 0.845764 0.319702
0.278687 0.846924 0.320862
0.291534 0.846832 0.320801
0.305359 0.847351 0.315399
0.319855 0.847351 0.317291
0.338196 0.847290 0.310638
0.359467 0.847351 0.312286
0.378693 0.847778 0.312744
0.398712 0.846161 0.309235
0.420624 0.846527 0.307404
0.440155 0.847290 0.302460
0.462402 0.847351 0.299957
0.488434 0.844604 0.295776
0.510925 0.845764 0.290588
0.532959 0.844177 0.287292
0.557892 0.843231 0.282837
0.581238 0.844818 0.276093
0.610260 0.844879 0.270386
0.641357 0.847748 0.263092
0.669189 0.846527 0.257996
0.701996 0.848999 0.244537
0.732727 0.849701 0.236145
0.762970 0.851105 0.229980
0.796600 0.850769 0.212799
0.825195 0.853180 0.201477
0.858795 0.856812 0.179565
0.889618 0.853943 0.153809
0.919983 0.857178 0.135437
0.949829 0.855225 0.103699
0.966278 0.855103 0.066895
0.983551 0.851654 0.003174
0.998016 0.852478 0.000031
0.287476 0.873444 0.342590
0.303223 0.873749 0.342590
0.319275 0.873749 0.342590
0.334839 0.873871 0.342072
0.347534 0.875488 0.338715
0.365509 0.873444 0.335327
0.382660 0.873749 0.335388
0.403534 0.873444 0.333160
0.418976 0.874084 0.332031
0.442139 0.875916 0.330383
0.462463 0.873138 0.325500
0.481903 0.874084 0.327850
0.505524 0.874207 0.319519
0.524811 0.873749 0.318970
0.546143 0.872559 0.312164
0.571686 0.871796 0.308807
0.593475 0.872437 0.304169
0.618256 0.872101 0.299530
0.650757 0.872925 0.297485
0.676361 0.873749 0.291779
0.706055 0.875793 0.281342
0.733124 0.875427 0.271393
0.761139 0.876801 0.264587
0.791656 0.879364 0.254547
0.821899 0.877808 0.238129
0.855103 0.879242 0.222992
0.885559 0.877686 0.209106
0.915802 0.882965 0.183197
0.945526 0.883423 0.161804
0.966095 0.881256 0.126892
0.983673 0.879303 0.100067
1.000000 0.877686 0.051208
0.308990 0.899536 0.368530
0.325287 0.901520 0.367096
0.341614 0.901245 0.366455
0.357697 0.898071 0.364471
0.373505 0.898315 0.360931
0.385071 0.901245 0.356110
0.406281 0.902863 0.355286
0.423340 0.899811 0.354889
0.443604 0.900055 0.354767
0.461700 0.899811 0.351654
0.484558 0.898712 0.345825
0.498535 0.901245 0.348785
0.522217 0.899994 0.346344
0.543304 0.897186 0.344025
0.565125 0.897827 0.343597
